; generated by PrusaSlicer 2.9.2 on 2025-06-05 at 07:49:15 UTC


;
;
; 

; external perimeters extrusion width = 0.68mm
; perimeters extrusion width = 0.68mm
; infill extrusion width = 0.68mm
; solid infill extrusion width = 0.68mm
; top infill extrusion width = 0.60mm
; first layer extrusion width = 0.70mm

M73 P0 R105
M73 Q0 S105
M201 X1000 Y1000 Z200 E5000 ; sets maximum accelerations, mm/sec^2
M203 X200 Y200 Z12 E120 ; sets maximum feedrates, mm / sec
M204 S1250 T1250 ; sets acceleration (S) and retract acceleration (R), mm/sec^2
M205 X8.00 Y8.00 Z0.40 E4.50 ; sets the jerk limits, mm/sec
M205 S0 T0 ; sets the minimum extruding and travel feed rate, mm/sec
;TYPE:Custom
M862.3 P "MK3S" ; printer model check
M862.1 P0.6 ; nozzle diameter check
M115 U3.14.1 ; tell printer latest fw version
G90 ; use absolute coordinates
M83 ; extruder relative mode
M104 S230 ; set extruder temp
M140 S70 ; set bed temp
M190 S70 ; wait for bed temp
M109 S230 ; wait for extruder temp
G28 W ; home all without mesh bed level
G80 X54.9226 Y54.0214 W143.25 H93.2498 ; mesh bed levelling

G1 Z0.2 F720
G1 Y-3 F1000 ; go outside print area
G92 E0
G1 X60 E9 F1000 ; intro line
G1 X100 E12.5 F1000 ; intro line

G92 E0
M221 S95
G21 ; set units to millimeters
G90 ; use absolute coordinates
M83 ; use relative distances for extrusion

M900 K0.04 ; Filament gcode LA 1.5
M900 K18 ; Filament gcode LA 1.0




M107
;LAYER_CHANGE
;Z:0.35
;HEIGHT:0.35
G1 E-.8 F2100
G1 Z.75 F7800
G1 X58.798 Y58.597
G1 Z.35
G1 E.8 F1500
;TYPE:Skirt/Brim
;WIDTH:0.7
G1 F900
G1 X60.297 Y57.214 E.18545
G1 X61.135 Y56.601 E.09441
G1 X62.954 Y55.577 E.18981
G1 X64.911 Y54.851 E.1898
G1 X66.957 Y54.439 E.18978
G1 X68.547 Y54.334 E.14489
G1 X185.043 Y54.353 E10.59293
G1 X187.116 Y54.594 E.18977
G1 X188.184 Y54.851 E.09988
G1 X190.097 Y55.559 E.18548
G1 X191.96 Y56.601 E.1941
G1 X193.597 Y57.897 E.18985
G1 X194.979 Y59.396 E.18539
G1 X195.593 Y60.234 E.09446
G1 X196.616 Y62.053 E.18976
G1 X197.343 Y64.01 E.18983
G1 X197.754 Y66.056 E.18976
G1 X197.84 Y67.151 E.09987
G1 X197.84 Y134.142 E6.09146
G1 X197.754 Y135.237 E.09987
M73 P0 R104
G1 X197.343 Y137.283 E.18976
G1 X197.037 Y138.225 E.09006
G1 X196.167 Y140.122 E.18977
G1 X195.011 Y141.86 E.1898
G1 X194.297 Y142.696 E.09997
G1 X192.762 Y144.109 E.18971
G1 X191.96 Y144.692 E.09016
G1 X190.141 Y145.715 E.18976
G1 X188.184 Y146.442 E.18983
G1 X186.138 Y146.853 E.18976
G1 X184.547 Y146.959 E.14499
G1 X68.547 Y146.959 E10.54783
G1 X66.957 Y146.853 E.1449
G1 X64.911 Y146.442 E.18976
G1 X63.969 Y146.136 E.09006
G1 X62.071 Y145.266 E.18985
G1 X60.333 Y144.109 E.18985
G1 X59.498 Y143.396 E.09984
G1 X58.116 Y141.897 E.18539
G1 X57.502 Y141.059 E.09446
G1 X56.479 Y139.24 E.18976
G1 X55.752 Y137.283 E.18983
G1 X55.341 Y135.237 E.18976
G1 X55.235 Y133.646 E.14499
G1 X55.254 Y67.151 E6.04636
G1 X55.341 Y66.056 E.09988
G1 X55.752 Y64.01 E.18976
G1 X56.058 Y63.067 E.09015
G1 X56.928 Y61.17 E.18977
G1 X57.502 Y60.233 E.09992
G1 X58.742 Y58.667 E.18163
;WIPE_START
G1 F6240
G1 X58.798 Y58.597 E-.02866
G1 X60.297 Y57.214 E-.65206
G1 X60.598 Y56.994 E-.11928
;WIPE_END
G1 Z.75 F7800
G1 X126.378 Y84.555
G1 Z.35
G1 E.8 F1500
;TYPE:Perimeter
;WIDTH:0.7
G1 F900
G1 X126.382 Y84.555 E.00036
G1 X127.436 Y84.616 E.096
G1 X128.453 Y84.856 E.09502
G1 X129.404 Y85.261 E.09399
G1 X130.273 Y85.821 E.094
G1 X131.035 Y86.521 E.09409
G1 X131.648 Y87.311 E.09092
G1 X132.099 Y88.146 E.08629
G1 X132.252 Y88.497 E.03482
G1 X132.477 Y89.233 E.06998
G1 X132.631 Y90.255 E.09398
G1 X132.609 Y91.289 E.09404
G1 X132.413 Y92.304 E.094
G1 X132.049 Y93.272 E.09404
G1 X131.526 Y94.164 E.09402
G1 X130.86 Y94.954 E.09396
G1 X130.07 Y95.621 E.09401
G1 X129.178 Y96.145 E.09407
G1 X128.211 Y96.511 E.09402
G1 X127.196 Y96.707 E.094
G1 X126.514 Y96.73 E.06205
G1 X125.923 Y96.711 E.05377
G1 X125.14 Y96.577 E.07223
G1 X124.158 Y96.254 E.094
G1 X123.245 Y95.77 E.09396
G1 X122.426 Y95.138 E.09407
G1 X121.726 Y94.377 E.09402
G1 X121.165 Y93.508 E.09405
G1 X120.759 Y92.558 E.09394
G1 X120.519 Y91.552 E.09404
G1 X120.453 Y90.52 E.09403
G1 X120.562 Y89.492 E.094
G1 X120.843 Y88.497 E.09401
G1 X121.057 Y88.023 E.04729
G1 X121.399 Y87.379 E.0663
G1 X121.885 Y86.719 E.07453
G1 X122.616 Y85.988 E.094
G1 X123.46 Y85.391 E.094
G1 X124.392 Y84.944 E.09399
G1 X125.387 Y84.662 E.09404
G1 X126.289 Y84.565 E.08249
G1 X126.431 Y85.178 F7800
G1 F900
G1 X126.435 Y85.177 E.00037
G1 X127.387 Y85.239 E.08675
G1 X128.295 Y85.461 E.085
G1 X129.147 Y85.831 E.08446
G1 X129.923 Y86.339 E.08434
G1 X130.602 Y86.972 E.08441
G1 X131.145 Y87.683 E.08135
G1 X131.543 Y88.431 E.07704
G1 X131.654 Y88.68 E.02479
G1 X131.88 Y89.416 E.07001
G1 X132.011 Y90.335 E.08441
G1 X131.985 Y91.262 E.08432
G1 X131.803 Y92.173 E.08447
G1 X131.469 Y93.039 E.0844
G1 X130.994 Y93.836 E.08437
G1 X130.391 Y94.542 E.08442
G1 X129.677 Y95.135 E.0844
M73 Q0 S104
G1 X128.874 Y95.599 E.08433
G1 X128.003 Y95.921 E.08444
G1 X127.091 Y96.091 E.08436
G1 X126.514 Y96.105 E.05248
G1 X126.004 Y96.091 E.04639
G1 X125.246 Y95.961 E.06993
G1 X124.366 Y95.665 E.08442
G1 X123.549 Y95.224 E.08442
G1 X122.819 Y94.652 E.08433
G1 X122.196 Y93.964 E.0844
G1 X121.697 Y93.181 E.08443
G1 X121.339 Y92.325 E.08437
G1 X121.13 Y91.42 E.08446
G1 X121.077 Y90.493 E.08443
G1 X121.182 Y89.571 E.08438
G1 X121.441 Y88.68 E.08437
G1 X121.912 Y87.734 E.09609
G1 X122.388 Y87.091 E.07275
G1 X123.048 Y86.439 E.08436
G1 X123.81 Y85.908 E.08445
G1 X124.65 Y85.514 E.08437
G1 X125.544 Y85.267 E.08434
G1 X126.342 Y85.187 E.07293
G1 X126.485 Y85.8 F7800
;TYPE:External perimeter
G1 F900
G1 X126.488 Y85.8 E.00027
G1 X127.338 Y85.862 E.0775
G1 X128.138 Y86.065 E.07505
G1 X128.889 Y86.4 E.07477
G1 X129.573 Y86.857 E.0748
G1 X130.17 Y87.423 E.0748
G1 X130.643 Y88.054 E.07171
G1 X130.987 Y88.717 E.06792
G1 X131.282 Y89.599 E.08457
G1 X131.391 Y90.414 E.07477
G1 X131.361 Y91.236 E.07479
G1 X131.192 Y92.041 E.07479
G1 X130.889 Y92.806 E.07482
G1 X130.462 Y93.508 E.07471
G1 X129.922 Y94.129 E.07483
G1 X129.285 Y94.649 E.07477
G1 X128.569 Y95.054 E.0748
G1 X127.795 Y95.332 E.07478
G1 X126.985 Y95.476 E.07481
G1 X126.163 Y95.48 E.07474
G1 X125.351 Y95.346 E.07483
G1 X124.574 Y95.076 E.0748
G1 X123.854 Y94.679 E.07476
G1 X123.211 Y94.165 E.07485
G1 X122.665 Y93.551 E.07471
G1 X122.23 Y92.853 E.07479
G1 X121.919 Y92.092 E.07475
G1 X121.741 Y91.288 E.07488
G1 X121.702 Y90.467 E.07474
G1 X121.802 Y89.651 E.07475
G1 X122.038 Y88.863 E.0748
G1 X122.426 Y88.089 E.07873
G1 X122.89 Y87.463 E.07085
G1 X123.481 Y86.89 E.07485
G1 X124.16 Y86.426 E.07478
G1 X124.907 Y86.083 E.07474
G1 X125.702 Y85.872 E.07479
G1 X126.395 Y85.809 E.06327
;WIPE_START
G1 F6240
G1 X126.485 Y85.8 E-.02892
G1 X126.488 Y85.8 E-.00096
G1 X127.338 Y85.862 E-.27248
G1 X128.138 Y86.065 E-.26388
G1 X128.806 Y86.363 E-.23376
;WIPE_END
G1 Z.75 F7800
G1 X142.926 Y80.044
G1 Z.35
G1 E.8 F1500
;TYPE:Perimeter
G1 F900
G1 X142.672 Y79.411 E.06202
G1 X142.437 Y78.42 E.09261
G1 X142.387 Y77.541 E.08006
G1 X142.482 Y76.627 E.08356
G1 X142.739 Y75.694 E.088
G1 X143.149 Y74.826 E.08729
G1 X143.695 Y74.05 E.08628
G1 X144.365 Y73.377 E.08635
G1 X145.138 Y72.827 E.08626
G1 X145.994 Y72.416 E.08634
G1 X146.906 Y72.155 E.08626
G1 X147.82 Y72.055 E.08361
G1 X148.786 Y72.109 E.08798
G1 X149.721 Y72.327 E.0873
G1 X150.595 Y72.698 E.08634
G1 X151.394 Y73.211 E.08634
G1 X151.981 Y73.743 E.07204
G1 X152.269 Y74.05 E.03828
G1 X152.677 Y74.6 E.06227
G1 X153.124 Y75.437 E.08628
G1 X153.423 Y76.338 E.08632
G1 X153.566 Y77.277 E.08637
G1 X153.548 Y78.225 E.08622
G1 X153.37 Y79.158 E.08637
G1 X153.037 Y80.047 E.08632
G1 X152.559 Y80.866 E.08623
G1 X151.949 Y81.593 E.08629
G1 X151.225 Y82.207 E.08632
G1 X150.407 Y82.689 E.08633
G1 X149.52 Y83.027 E.08631
G1 X148.589 Y83.209 E.08626
G1 X147.953 Y83.232 E.05787
G1 X147.444 Y83.219 E.0463
G1 X146.701 Y83.093 E.06853
G1 X145.799 Y82.799 E.08627
G1 X144.959 Y82.355 E.08639
G1 X144.207 Y81.777 E.08624
G1 X143.563 Y81.079 E.08636
G1 X143.12 Y80.403 E.07349
G1 X142.969 Y80.123 E.02893
G1 X143.506 Y79.811 F7800
G1 F900
G1 X143.252 Y79.178 E.06202
G1 X143.053 Y78.316 E.08044
G1 X143.012 Y77.515 E.07293
G1 X143.102 Y76.706 E.07402
G1 X143.338 Y75.873 E.07873
G1 X143.707 Y75.107 E.07731
G1 X144.198 Y74.421 E.07671
G1 X144.797 Y73.828 E.07664
G1 X145.488 Y73.345 E.07666
G1 X146.251 Y72.985 E.07671
G1 X147.064 Y72.76 E.0767
G1 X147.873 Y72.677 E.07395
G1 X148.737 Y72.732 E.07872
G1 X149.564 Y72.932 E.07737
G1 X150.338 Y73.267 E.07669
G1 X151.044 Y73.728 E.07667
G1 X151.549 Y74.194 E.06248
G1 X151.767 Y74.421 E.02862
G1 X152.174 Y74.972 E.06229
G1 X152.566 Y75.719 E.07671
G1 X152.826 Y76.521 E.07666
G1 X152.946 Y77.356 E.07671
G1 X152.924 Y78.199 E.07668
G1 X152.759 Y79.026 E.07668
G1 X152.457 Y79.814 E.07673
G1 X152.027 Y80.539 E.07665
G1 X151.48 Y81.181 E.07669
G1 X150.832 Y81.721 E.0767
G1 X150.103 Y82.144 E.07664
G1 X149.312 Y82.437 E.0767
G1 X148.483 Y82.593 E.0767
G1 X147.953 Y82.607 E.04821
G1 X147.481 Y82.593 E.04294
G1 X146.806 Y82.478 E.06226
G1 X146.007 Y82.209 E.07666
G1 X145.264 Y81.81 E.07669
G1 X144.6 Y81.291 E.07663
G1 X144.032 Y80.667 E.07673
G1 X143.652 Y80.075 E.06397
G1 X143.549 Y79.889 E.01933
G1 X144.106 Y79.569 F7800
;TYPE:External perimeter
G1 F900
G1 X143.832 Y78.945 E.06197
G1 X143.669 Y78.211 E.06837
G1 X143.636 Y77.488 E.06581
G1 X143.722 Y76.786 E.06431
G1 X143.936 Y76.052 E.06952
G1 X144.265 Y75.389 E.0673
G1 X144.7 Y74.793 E.06709
G1 X145.23 Y74.279 E.06713
G1 X145.838 Y73.862 E.06704
G1 X146.508 Y73.555 E.06701
G1 X147.221 Y73.364 E.06712
G1 X147.926 Y73.3 E.06437
G1 X148.689 Y73.355 E.06956
G1 X149.406 Y73.537 E.06726
G1 X150.08 Y73.837 E.06708
G1 X150.694 Y74.246 E.06708
G1 X151.117 Y74.645 E.05287
G1 X151.672 Y75.344 E.08116
G1 X152.008 Y76 E.06702
G1 X152.228 Y76.704 E.06707
G1 X152.326 Y77.435 E.06706
G1 X152.299 Y78.172 E.06706
G1 X152.148 Y78.894 E.06707
G1 X151.878 Y79.581 E.06712
G1 X151.495 Y80.211 E.06704
G1 X151.011 Y80.768 E.0671
G1 X150.44 Y81.235 E.06707
G1 X149.798 Y81.598 E.06706
G1 X149.104 Y81.848 E.06707
G1 X148.378 Y81.977 E.06705
G1 X147.587 Y81.977 E.07193
G1 X146.912 Y81.862 E.06226
G1 X146.215 Y81.62 E.06709
G1 X145.569 Y81.264 E.06707
G1 X144.992 Y80.804 E.0671
G1 X144.501 Y80.254 E.06704
G1 X144.185 Y79.748 E.05425
G1 X144.142 Y79.652 E.00956
;WIPE_START
G1 F6240
G1 X144.106 Y79.569 E-.02892
G1 X143.832 Y78.945 E-.21789
G1 X143.669 Y78.211 E-.24039
G1 X143.636 Y77.488 E-.23139
G1 X143.667 Y77.235 E-.08141
;WIPE_END
G1 Z.75 F7800
G1 X160.047 Y69.743
G1 Z.35
G1 E.8 F1500
;TYPE:Perimeter
G1 F900
G1 X159.462 Y69.684 E.05346
G1 X158.894 Y69.52 E.05376
G1 X158.539 Y69.342 E.03611
G1 X158.109 Y69.051 E.04721
G1 X157.755 Y68.721 E.04401
G1 X157.418 Y68.268 E.05134
G1 X157.204 Y67.867 E.04133
G1 X157.028 Y67.299 E.05407
G1 X156.967 Y66.989 E.02873
G1 X156.983 Y66.256 E.06667
G1 X157.095 Y65.74 E.04801
G1 X157.289 Y65.258 E.04724
G1 X157.565 Y64.808 E.048
G1 X157.909 Y64.418 E.04729
G1 X158.32 Y64.086 E.04804
G1 X158.773 Y63.833 E.04718
G1 X159.265 Y63.658 E.04748
G1 X159.769 Y63.57 E.04652
G1 X160.158 Y63.552 E.03541
G1 X160.828 Y63.658 E.06168
G1 X161.318 Y63.831 E.04725
G1 X161.779 Y64.088 E.04799
G1 X162.183 Y64.415 E.04726
G1 X162.532 Y64.811 E.048
G1 X162.805 Y65.254 E.04732
G1 X163.001 Y65.744 E.04799
G1 X163.111 Y66.252 E.04726
G1 X163.133 Y66.779 E.04796
G1 X163.067 Y67.295 E.0473
G1 X162.945 Y67.732 E.04126
G1 X162.679 Y68.264 E.05408
G1 X162.472 Y68.575 E.03397
G1 X161.99 Y69.048 E.06141
G1 X161.609 Y69.317 E.04241
G1 X161.077 Y69.558 E.05311
G1 X160.633 Y69.684 E.04197
G1 X160.136 Y69.739 E.04547
G1 X160.048 Y69.113 F7800
G1 F900
G1 X159.983 Y69.119 E.00594
G1 X159.395 Y69.033 E.05404
G1 X158.889 Y68.824 E.04978
G1 X158.459 Y68.533 E.04721
G1 X158.23 Y68.314 E.02881
G1 X157.92 Y67.895 E.04739
G1 X157.778 Y67.613 E.02871
G1 X157.626 Y67.116 E.04726
G1 X157.586 Y66.802 E.02878
G1 X157.608 Y66.283 E.04723
G1 X157.675 Y65.973 E.02884
G1 X157.868 Y65.491 E.04721
G1 X158.034 Y65.221 E.02882
G1 X158.378 Y64.831 E.04729
G1 X158.624 Y64.632 E.02877
G1 X159.078 Y64.378 E.0473
G1 X159.375 Y64.273 E.02864
G1 X159.876 Y64.186 E.04624
G1 X160.38 Y64.196 E.04584
G1 X161.11 Y64.42 E.06943
G1 X161.386 Y64.575 E.02878
G1 X161.791 Y64.901 E.04727
G1 X162 Y65.139 E.0288
G1 X162.272 Y65.582 E.04727
G1 X162.391 Y65.876 E.02884
G1 X162.5 Y66.384 E.04724
G1 X162.514 Y66.7 E.02876
G1 X162.448 Y67.216 E.0473
G1 X162.355 Y67.519 E.02882
G1 X162.121 Y67.983 E.04725
G1 X161.932 Y68.237 E.02879
G1 X161.557 Y68.597 E.04727
G1 X161.295 Y68.774 E.02875
G1 X160.82 Y68.989 E.04741
G1 X160.553 Y69.064 E.02522
G1 X160.137 Y69.104 E.038
G1 X160.047 Y68.496 F7800
;TYPE:External perimeter
G1 F900
G1 X159.557 Y68.429 E.04497
G1 X159.239 Y68.306 E.031
G1 X158.809 Y68.015 E.04721
G1 X158.423 Y67.524 E.05679
G1 X158.223 Y66.933 E.05673
G1 X158.232 Y66.309 E.05675
G1 X158.448 Y65.724 E.0567
G1 X158.847 Y65.243 E.05683
G1 X159.383 Y64.924 E.05672
G1 X159.983 Y64.802 E.05567
G1 X160.411 Y64.836 E.03904
G1 X160.901 Y65.009 E.04725
G1 X161.398 Y65.387 E.05678
G1 X161.74 Y65.909 E.05675
G1 X161.889 Y66.515 E.05674
G1 X161.828 Y67.136 E.05674
G1 X161.563 Y67.701 E.05675
G1 X161.125 Y68.146 E.05678
G1 X160.563 Y68.419 E.05681
G1 X160.136 Y68.484 E.03927
;WIPE_START
G1 F6240
G1 X160.047 Y68.496 E-.02871
G1 X159.557 Y68.429 E-.15812
G1 X159.239 Y68.306 E-.10901
G1 X158.809 Y68.015 E-.166
G1 X158.423 Y67.524 E-.19968
G1 X158.284 Y67.114 E-.13848
;WIPE_END
G1 Z.75 F7800
G1 X182.678 Y78.777
G1 Z.35
G1 E.8 F1500
;TYPE:Perimeter
G1 F900
G1 X182.488 Y78.959 E.02392
G1 X182.16 Y79.136 E.03389
G1 X181.783 Y79.233 E.0354
G1 X177.51 Y79.246 E.38854
G1 X177.107 Y79.193 E.03696
G1 X176.742 Y79.045 E.03581
G1 X176.445 Y78.826 E.03355
G1 X176.146 Y78.445 E.04404
G1 X175.988 Y78.036 E.03987
G1 X175.948 Y77.684 E.03221
G1 X175.948 Y72.609 E.46147
G1 X176.021 Y72.137 E.04343
G1 X176.239 Y71.701 E.04432
G1 X176.476 Y71.438 E.03219
G1 X176.795 Y71.219 E.03518
G1 X177.24 Y71.07 E.04267
G1 X178.005 Y71.047 E.06959
G1 X181.585 Y71.047 E.32553
;WIDTH:0.744973
G1 X181.672 Y71.038 E.00853
;WIDTH:0.789947
G1 X181.76 Y71.029 E.0092
;WIDTH:0.83492
G1 X181.847 Y71.021 E.00966
;WIDTH:0.879894
G1 X181.935 Y71.012 E.01036
;WIDTH:0.924867
G1 X182.022 Y71.003 E.01082
;WIDTH:0.969841
G1 X182.11 Y70.995 E.0115
G1 X182.626 Y71.29 E.07738
;WIDTH:0.936289
G1 X182.69 Y71.4 E.01595
;WIDTH:0.889031
G1 X182.754 Y71.51 E.01507
;WIDTH:0.841773
G1 X182.817 Y71.62 E.01414
;WIDTH:0.794515
G1 X182.881 Y71.73 E.01332
;WIDTH:0.747257
G1 X182.945 Y71.84 E.01245
;WIDTH:0.7
G1 X183.096 Y72.211 E.03642
G1 X183.147 Y72.609 E.03649
G1 X183.147 Y77.684 E.46147
G1 X183.057 Y78.207 E.04826
G1 X182.815 Y78.647 E.04566
G1 X182.743 Y78.715 E.00901
G1 X182.236 Y78.336 F7800
G1 F900
G1 X182.033 Y78.507 E.02413
G1 X181.704 Y78.614 E.03146
G1 X181.585 Y78.621 E.01084
G1 X177.51 Y78.621 E.37054
G1 X177.155 Y78.551 E.0329
G1 X176.871 Y78.369 E.03067
G1 X176.656 Y78.07 E.03349
G1 X176.573 Y77.724 E.03235
G1 X176.573 Y72.609 E.4651
G1 X176.616 Y72.326 E.02603
G1 X176.747 Y72.064 E.02664
G1 X176.979 Y71.836 E.02958
G1 X177.081 Y71.775 E.01081
G1 X177.439 Y71.674 E.03382
G1 X181.585 Y71.671 E.37699
G1 X181.875 Y71.717 E.0267
G1 X182.187 Y71.89 E.03244
G1 X182.401 Y72.147 E.03041
G1 X182.516 Y72.501 E.03384
G1 X182.522 Y77.684 E.47129
G1 X182.468 Y77.998 E.02897
G1 X182.323 Y78.262 E.02739
G1 X182.305 Y78.277 E.00213
G1 X181.797 Y77.899 F7800
;TYPE:External perimeter
G1 F900
G1 X181.663 Y77.986 E.01453
G1 X181.585 Y77.996 E.00715
G1 X177.51 Y77.996 E.37054
G1 X177.325 Y77.936 E.01768
G1 X177.21 Y77.772 E.01821
G1 X177.197 Y72.609 E.46947
G1 X177.256 Y72.427 E.0174
G1 X177.367 Y72.331 E.01334
G1 X177.51 Y72.296 E.01339
G1 X181.585 Y72.296 E.37054
G1 X181.786 Y72.369 E.01944
G1 X181.887 Y72.529 E.0172
G1 X181.897 Y77.684 E.46874
G1 X181.847 Y77.83 E.01403
;WIPE_START
G1 F6240
G1 X181.797 Y77.899 E-.02724
G1 X181.663 Y77.986 E-.05108
G1 X181.585 Y77.996 E-.02514
G1 X179.406 Y77.996 E-.69654
;WIPE_END
G1 Z.75 F7800
G1 X184.547 Y70.794
G1 Z.35
G1 E.8 F1500
;TYPE:Perimeter
G1 F900
G1 X183.95 Y70.733 E.05457
;WIDTH:0.73495
G1 X183.752 Y70.694 E.01938
;WIDTH:0.769901
