; generated by PrusaSlicer 2.9.2 on 2025-06-03 at 09:57:54 UTC


;
;
; 

; external perimeters extrusion width = 0.68mm
; perimeters extrusion width = 0.68mm
; infill extrusion width = 0.68mm
; solid infill extrusion width = 0.68mm
; top infill extrusion width = 0.60mm
; first layer extrusion width = 0.70mm

; external perimeters extrusion width = 0.68mm
; perimeters extrusion width = 0.68mm
; infill extrusion width = 0.68mm
; solid infill extrusion width = 0.68mm
; top infill extrusion width = 0.60mm
; first layer extrusion width = 0.70mm

; external perimeters extrusion width = 0.68mm
; perimeters extrusion width = 0.68mm
; infill extrusion width = 0.68mm
; solid infill extrusion width = 0.68mm
; top infill extrusion width = 0.60mm
; first layer extrusion width = 0.70mm

; external perimeters extrusion width = 0.68mm
; perimeters extrusion width = 0.68mm
; infill extrusion width = 0.68mm
; solid infill extrusion width = 0.68mm
; top infill extrusion width = 0.60mm
; first layer extrusion width = 0.70mm

; external perimeters extrusion width = 0.68mm
; perimeters extrusion width = 0.68mm
; infill extrusion width = 0.68mm
; solid infill extrusion width = 0.68mm
; top infill extrusion width = 0.60mm
; first layer extrusion width = 0.70mm

M73 P0 R126
M73 Q0 S127
M201 X1000 Y1000 Z200 E5000 ; sets maximum accelerations, mm/sec^2
M203 X200 Y200 Z12 E120 ; sets maximum feedrates, mm / sec
M204 S1250 T1250 ; sets acceleration (S) and retract acceleration (R), mm/sec^2
M205 X8.00 Y8.00 Z0.40 E4.50 ; sets the jerk limits, mm/sec
M205 S0 T0 ; sets the minimum extruding and travel feed rate, mm/sec
;TYPE:Custom
M862.3 P "MK3S" ; printer model check
M862.1 P0.6 ; nozzle diameter check
M115 U3.14.1 ; tell printer latest fw version
G90 ; use absolute coordinates
M83 ; extruder relative mode
M104 S230 ; set extruder temp
M140 S70 ; set bed temp
M190 S70 ; wait for bed temp
M109 S230 ; wait for extruder temp
G28 W ; home all without mesh bed level
G80 X29.2257 Y25.8751 W143.25 H166.84 ; mesh bed levelling

G1 Z0.2 F720
G1 Y-3 F1000 ; go outside print area
G92 E0
G1 X60 E9 F1000 ; intro line
G1 X100 E12.5 F1000 ; intro line

G92 E0
M221 S95
G21 ; set units to millimeters
G90 ; use absolute coordinates
M83 ; use relative distances for extrusion

M900 K0.04 ; Filament gcode LA 1.5
M900 K18 ; Filament gcode LA 1.0




M107
;LAYER_CHANGE
;Z:0.35
;HEIGHT:0.35
G1 E-.8 F2100
G1 Z.75 F7800
G1 X69.779 Y40.987
G1 Z.35
G1 E.8 F1500
;TYPE:Skirt/Brim
;WIDTH:0.7
G1 F900
G1 X74.863 Y32.331 E.91281
G1 X77.363 Y28.831 E.3911
G1 X78.967 Y27.269 E.20358
G1 X81.014 Y26.365 E.20348
G1 X82.5 Y26.188 E.13608
G1 X147.5 Y26.188 E5.91042
G1 X149.703 Y26.584 E.20353
M73 Q0 S126
G1 X151.629 Y27.725 E.20356
G1 X152.637 Y28.831 E.13607
G1 X155.137 Y32.331 E.3911
G1 X156.181 Y34.718 E.2369
G1 X172.057 Y111.5 E7.12944
G1 X172.163 Y113.09 E.1449
G1 X172.163 Y179.09 E6.00135
G1 X172.057 Y180.681 E.14499
G1 X171.646 Y182.727 E.18976
G1 X170.92 Y184.684 E.1898
G1 X169.896 Y186.503 E.18981
G1 X169.314 Y187.305 E.0901
G1 X167.9 Y188.84 E.18977
G1 X167.065 Y189.554 E.0999
G1 X165.327 Y190.71 E.1898
G1 X163.429 Y191.58 E.18985
G1 X162.487 Y191.886 E.09006
G1 X160.441 Y192.297 E.18976
G1 X158.851 Y192.403 E.1449
G1 X42.851 Y192.403 E10.54783
G1 X41.26 Y192.297 E.14499
G1 X39.214 Y191.886 E.18976
G1 X37.257 Y191.159 E.18983
G1 X35.438 Y190.136 E.18976
G1 X34.636 Y189.554 E.0901
G1 X33.101 Y188.14 E.18977
G1 X32.387 Y187.304 E.09997
G1 X31.231 Y185.567 E.18973
G1 X30.38 Y183.714 E.18541
G1 X30.055 Y182.727 E.09449
G1 X29.799 Y181.659 E.09986
G1 X29.558 Y179.586 E.18977
G1 X29.538 Y113.09 E6.04645
G1 X29.644 Y111.5 E.1449
G1 X30.055 Y109.454 E.18976
G1 X30.361 Y108.512 E.09006
G1 X31.17 Y106.717 E.17903
G1 X69.733 Y41.065 E6.92337
;WIPE_START
G1 F6240
M73 P0 R125
G1 X69.779 Y40.987 E-.02895
G1 X71 Y38.907 E-.77105
;WIPE_END
G1 Z.75 F7800
G1 X100.681 Y129.999
G1 Z.35
G1 E.8 F1500
;TYPE:Perimeter
;WIDTH:0.7
G1 F900
G1 X100.685 Y129.999 E.00036
G1 X101.739 Y130.06 E.096
G1 X102.756 Y130.3 E.09502
G1 X103.707 Y130.705 E.09399
G1 X104.576 Y131.266 E.09405
G1 X105.338 Y131.965 E.09403
G1 X105.951 Y132.755 E.09092
G1 X106.402 Y133.59 E.08629
G1 X106.555 Y133.941 E.03482
G1 X106.78 Y134.677 E.06998
G1 X106.934 Y135.699 E.09398
G1 X106.912 Y136.733 E.09404
G1 X106.717 Y137.748 E.09398
G1 X106.352 Y138.716 E.09407
G1 X105.829 Y139.608 E.09402
G1 X105.163 Y140.399 E.09402
G1 X104.373 Y141.065 E.09396
G1 X103.482 Y141.589 E.09399
G1 X102.514 Y141.955 E.0941
G1 X101.499 Y142.152 E.09402
G1 X100.817 Y142.174 E.06205
G1 X100.226 Y142.155 E.05377
G1 X99.443 Y142.021 E.07223
G1 X98.461 Y141.698 E.094
G1 X97.548 Y141.214 E.09396
G1 X96.729 Y140.582 E.09407
G1 X96.03 Y139.821 E.09396
G1 X95.468 Y138.952 E.0941
G1 X95.062 Y138.002 E.09394
G1 X94.822 Y136.996 E.09404
G1 X94.756 Y135.964 E.09403
G1 X94.865 Y134.936 E.094
G1 X95.146 Y133.941 E.09401
G1 X95.36 Y133.468 E.04721
G1 X95.702 Y132.823 E.06638
G1 X96.188 Y132.164 E.07446
G1 X96.919 Y131.432 E.09407
G1 X97.763 Y130.835 E.094
G1 X98.695 Y130.388 E.09399
G1 X99.69 Y130.106 E.09404
G1 X100.592 Y130.009 E.08249
G1 X100.735 Y130.622 F7800
G1 F900
G1 X100.738 Y130.622 E.00027
G1 X101.69 Y130.683 E.08674
G1 X102.598 Y130.905 E.085
G1 X103.45 Y131.275 E.08446
G1 X104.226 Y131.783 E.08434
G1 X104.905 Y132.416 E.08441
G1 X105.448 Y133.127 E.08135
G1 X105.846 Y133.875 E.07704
G1 X105.957 Y134.124 E.02479
G1 X106.183 Y134.86 E.07001
G1 X106.314 Y135.779 E.08441
G1 X106.288 Y136.707 E.08442
G1 X106.106 Y137.617 E.08438
G1 X105.772 Y138.483 E.0844
G1 X105.297 Y139.28 E.08437
G1 X104.694 Y139.986 E.08442
G1 X103.98 Y140.579 E.0844
G1 X103.177 Y141.044 E.08438
G1 X102.306 Y141.365 E.08441
G1 X101.394 Y141.536 E.08437
G1 X100.817 Y141.549 E.05248
G1 X100.307 Y141.536 E.04639
G1 X99.549 Y141.406 E.06993
G1 X98.669 Y141.109 E.08445
G1 X97.852 Y140.668 E.08442
G1 X97.122 Y140.096 E.08433
G1 X96.499 Y139.408 E.0844
G1 X96.001 Y138.625 E.08438
G1 X95.642 Y137.769 E.0844
G1 X95.433 Y136.864 E.08446
G1 X95.38 Y135.938 E.08434
G1 X95.485 Y135.015 E.08447
G1 X95.744 Y134.124 E.08437
G1 X96.216 Y133.178 E.09613
G1 X96.691 Y132.535 E.07269
G1 X97.351 Y131.883 E.08436
G1 X98.113 Y131.352 E.08445
G1 X98.953 Y130.958 E.08437
G1 X99.848 Y130.711 E.08442
G1 X100.645 Y130.631 E.07284
G1 X100.788 Y131.245 F7800
;TYPE:External perimeter
G1 F900
G1 X100.791 Y131.244 E.00029
G1 X101.642 Y131.306 E.07759
G1 X102.441 Y131.51 E.07498
G1 X103.192 Y131.844 E.07474
G1 X103.876 Y132.301 E.0748
G1 X104.473 Y132.867 E.0748
G1 X104.946 Y133.499 E.07178
G1 X105.29 Y134.161 E.06784
G1 X105.585 Y135.043 E.08457
G1 X105.694 Y135.858 E.07477
G1 X105.664 Y136.68 E.07479
G1 X105.495 Y137.485 E.07479
G1 X105.192 Y138.25 E.07482
G1 X104.765 Y138.952 E.07471
G1 X104.225 Y139.573 E.07483
G1 X103.588 Y140.093 E.07477
G1 X102.872 Y140.498 E.0748
G1 X102.098 Y140.776 E.07478
G1 X101.288 Y140.92 E.07481
G1 X100.466 Y140.924 E.07474
G1 X99.654 Y140.79 E.07483
G1 X98.877 Y140.52 E.0748
G1 X98.157 Y140.123 E.07476
G1 X97.514 Y139.61 E.0748
G1 X96.968 Y138.995 E.07478
G1 X96.533 Y138.297 E.07479
G1 X96.222 Y137.536 E.07475
G1 X96.044 Y136.733 E.07479
G1 X96.005 Y135.911 E.07483
G1 X96.105 Y135.095 E.07475
G1 X96.341 Y134.307 E.0748
G1 X96.73 Y133.534 E.07869
G1 X97.193 Y132.907 E.07087
G1 X97.784 Y132.334 E.07485
G1 X98.463 Y131.87 E.07478
G1 X99.21 Y131.527 E.07474
G1 X100.005 Y131.316 E.07479
G1 X100.698 Y131.253 E.06327
;WIPE_START
G1 F6240
G1 X100.788 Y131.245 E-.02889
G1 X100.791 Y131.244 E-.00101
G1 X101.642 Y131.306 E-.2728
G1 X102.441 Y131.51 E-.26364
G1 X103.109 Y131.807 E-.23366
;WIPE_END
G1 Z.75 F7800
G1 X117.229 Y125.488
G1 Z.35
G1 E.8 F1500
;TYPE:Perimeter
G1 F900
G1 X116.975 Y124.855 E.06202
G1 X116.74 Y123.865 E.09252
G1 X116.691 Y122.985 E.08014
G1 X116.785 Y122.071 E.08355
G1 X117.042 Y121.138 E.088
G1 X117.452 Y120.27 E.08729
G1 X117.998 Y119.494 E.08628
G1 X118.668 Y118.821 E.08635
G1 X119.441 Y118.271 E.08626
G1 X120.297 Y117.86 E.08634
G1 X121.209 Y117.599 E.08626
G1 X122.123 Y117.499 E.08361
G1 X123.089 Y117.553 E.08798
G1 X124.024 Y117.772 E.08732
G1 X124.898 Y118.142 E.0863
G1 X125.697 Y118.655 E.08634
G1 X126.284 Y119.187 E.07204
G1 X126.572 Y119.494 E.03828
G1 X126.98 Y120.044 E.06227
G1 X127.427 Y120.882 E.08636
G1 X127.726 Y121.782 E.08623
G1 X127.869 Y122.721 E.08637
G1 X127.851 Y123.67 E.08631
G1 X127.673 Y124.602 E.08628
G1 X127.34 Y125.491 E.08632
G1 X126.862 Y126.31 E.08623
G1 X126.252 Y127.038 E.08636
G1 X125.528 Y127.651 E.08626
G1 X124.71 Y128.134 E.08638
G1 X123.823 Y128.471 E.08628
G1 X122.892 Y128.653 E.08626
G1 X122.256 Y128.676 E.05787
G1 X121.747 Y128.663 E.0463
G1 X121.004 Y128.538 E.06851
G1 X120.102 Y128.243 E.08629
G1 X119.263 Y127.8 E.08627
G1 X118.51 Y127.221 E.08637
G1 X117.866 Y126.523 E.08636
G1 X117.423 Y125.847 E.07349
G1 X117.272 Y125.567 E.02893
G1 X117.809 Y125.255 F7800
G1 F900
G1 X117.555 Y124.622 E.06202
G1 X117.356 Y123.76 E.08044
G1 X117.315 Y122.959 E.07293
G1 X117.405 Y122.15 E.07402
G1 X117.641 Y121.317 E.07873
G1 X118.01 Y120.551 E.07731
G1 X118.501 Y119.865 E.07671
G1 X119.1 Y119.272 E.07664
G1 X119.791 Y118.789 E.07666
G1 X120.554 Y118.429 E.07671
G1 X121.367 Y118.204 E.0767
G1 X122.176 Y118.121 E.07395
G1 X123.041 Y118.176 E.07881
G1 X123.867 Y118.376 E.07728
G1 X124.641 Y118.711 E.07669
G1 X125.347 Y119.172 E.07667
G1 X125.852 Y119.638 E.06248
G1 X126.07 Y119.865 E.02862
G1 X126.477 Y120.416 E.06229
G1 X126.869 Y121.163 E.07671
G1 X127.129 Y121.965 E.07666
G1 X127.249 Y122.8 E.07671
G1 X127.227 Y123.643 E.07668
G1 X127.062 Y124.47 E.07668
G1 X126.76 Y125.258 E.07673
G1 X126.33 Y125.983 E.07665
G1 X125.783 Y126.625 E.07669
G1 X125.135 Y127.165 E.0767
G1 X124.406 Y127.588 E.07664
G1 X123.615 Y127.882 E.07673
G1 X122.786 Y128.037 E.07669
G1 X122.256 Y128.051 E.04821
G1 X121.785 Y128.037 E.04285
G1 X121.11 Y127.922 E.06226
G1 X120.31 Y127.653 E.07675
G1 X119.567 Y127.254 E.07669
G1 X118.903 Y126.735 E.07663
G1 X118.335 Y126.111 E.07673
G1 X117.956 Y125.519 E.06392
G1 X117.852 Y125.334 E.0193
G1 X118.409 Y125.014 F7800
;TYPE:External perimeter
G1 F900
G1 X118.135 Y124.389 E.06205
G1 X117.972 Y123.656 E.06828
G1 X117.939 Y122.932 E.0659
G1 X118.025 Y122.23 E.06431
G1 X118.239 Y121.496 E.06952
G1 X118.568 Y120.833 E.0673
G1 X119.003 Y120.237 E.06709
G1 X119.533 Y119.723 E.06713
G1 X120.141 Y119.307 E.06699
G1 X120.812 Y118.999 E.06713
G1 X121.524 Y118.808 E.06703
G1 X122.229 Y118.744 E.06437
G1 X122.992 Y118.799 E.06956
G1 X123.709 Y118.981 E.06726
G1 X124.383 Y119.281 E.06708
G1 X124.997 Y119.69 E.06708
G1 X125.42 Y120.089 E.05287
G1 X125.975 Y120.788 E.08116
G1 X126.311 Y121.444 E.06702
G1 X126.531 Y122.148 E.06707
G1 X126.629 Y122.879 E.06706
G1 X126.603 Y123.617 E.06715
G1 X126.452 Y124.339 E.06707
G1 X126.181 Y125.025 E.06707
G1 X125.798 Y125.655 E.06704
G1 X125.314 Y126.212 E.0671
G1 X124.743 Y126.679 E.06707
G1 X124.101 Y127.042 E.06706
G1 X123.407 Y127.292 E.06707
G1 X122.681 Y127.422 E.06706
G1 X121.89 Y127.422 E.07193
G1 X121.215 Y127.306 E.06228
G1 X120.518 Y127.064 E.06709
G1 X119.872 Y126.708 E.06707
G1 X119.295 Y126.249 E.06704
G1 X118.805 Y125.698 E.06705
G1 X118.488 Y125.192 E.05429
G1 X118.446 Y125.096 E.00953
;WIPE_START
G1 F6240
G1 X118.409 Y125.014 E-.02876
G1 X118.135 Y124.389 E-.21818
G1 X117.972 Y123.656 E-.24007
G1 X117.939 Y122.932 E-.23171
G1 X117.97 Y122.68 E-.08128
;WIPE_END
G1 Z.75 F7800
G1 X134.35 Y115.187
G1 Z.35
G1 E.8 F1500
;TYPE:Perimeter
G1 F900
G1 X133.765 Y115.128 E.05346
G1 X133.197 Y114.965 E.05373
G1 X132.842 Y114.786 E.03615
G1 X132.412 Y114.495 E.04721
G1 X132.058 Y114.166 E.04394
G1 X131.722 Y113.712 E.05136
G1 X131.508 Y113.312 E.04125
G1 X131.332 Y112.743 E.05416
G1 X131.27 Y112.433 E.02875
G1 X131.287 Y111.7 E.06667
G1 X131.398 Y111.184 E.04799
G1 X131.592 Y110.702 E.04724
G1 X131.868 Y110.252 E.048
G1 X132.212 Y109.862 E.04729
G1 X132.623 Y109.53 E.04804
G1 X133.076 Y109.277 E.04718
G1 X133.568 Y109.102 E.04748
G1 X134.072 Y109.014 E.04652
G1 X134.461 Y108.996 E.03541
G1 X135.131 Y109.102 E.06168
G1 X135.621 Y109.275 E.04725
G1 X136.082 Y109.533 E.04804
G1 X136.486 Y109.859 E.0472
G1 X136.835 Y110.255 E.048
G1 X137.108 Y110.698 E.04732
G1 X137.305 Y111.188 E.04802
G1 X137.414 Y111.696 E.04724
G1 X137.436 Y112.224 E.04805
G1 X137.37 Y112.739 E.04721
G1 X137.248 Y113.177 E.04134
G1 X136.982 Y113.708 E.054
G1 X136.775 Y114.019 E.03397
G1 X136.293 Y114.492 E.06141
G1 X135.912 Y114.761 E.04241
G1 X135.381 Y115.002 E.05302
G1 X134.936 Y115.128 E.04205
G1 X134.439 Y115.183 E.04547
G1 X134.351 Y114.557 F7800
G1 F900
G1 X134.287 Y114.563 E.00585
G1 X133.698 Y114.478 E.05411
G1 X133.192 Y114.268 E.04982
G1 X132.762 Y113.977 E.04721
G1 X132.533 Y113.758 E.02881
G1 X132.223 Y113.339 E.04739
G1 X132.081 Y113.057 E.02871
G1 X131.929 Y112.56 E.04726
G1 X131.889 Y112.246 E.02878
G1 X131.911 Y111.727 E.04723
G1 X131.978 Y111.417 E.02884
G1 X132.171 Y110.935 E.04721
G1 X132.338 Y110.665 E.02887
G1 X132.681 Y110.275 E.04723
G1 X132.927 Y110.076 E.02877
G1 X133.381 Y109.822 E.0473
G1 X133.678 Y109.717 E.02864
G1 X134.179 Y109.63 E.04624
G1 X134.683 Y109.64 E.04584
G1 X135.413 Y109.864 E.06943
G1 X135.689 Y110.019 E.02878
G1 X136.094 Y110.345 E.04727
G1 X136.303 Y110.583 E.0288
G1 X136.576 Y111.026 E.04732
G1 X136.694 Y111.32 E.02881
G1 X136.803 Y111.828 E.04724
G1 X136.817 Y112.144 E.02876
G1 X136.751 Y112.66 E.0473
G1 X136.658 Y112.963 E.02882
G1 X136.424 Y113.427 E.04725
G1 X136.235 Y113.681 E.02879
G1 X135.86 Y114.041 E.04727
G1 X135.598 Y114.219 E.0288
G1 X135.123 Y114.433 E.04737
G1 X134.856 Y114.508 E.02522
G1 X134.441 Y114.549 E.03792
G1 X134.35 Y113.94 F7800
;TYPE:External perimeter
G1 F900
G1 X133.86 Y113.873 E.04497
G1 X133.542 Y113.75 E.031
G1 X133.112 Y113.459 E.04721
G1 X132.726 Y112.968 E.05679
G1 X132.527 Y112.377 E.0567
G1 X132.535 Y111.753 E.05674
G1 X132.751 Y111.168 E.0567
G1 X133.15 Y110.688 E.05676
G1 X133.686 Y110.368 E.05676
G1 X134.286 Y110.246 E.05567
G1 X134.714 Y110.28 E.03904
G1 X135.205 Y110.453 E.04734
G1 X135.701 Y110.831 E.05671
G1 X136.043 Y111.353 E.05675
G1 X136.192 Y111.959 E.05674
G1 X136.131 Y112.58 E.05674
G1 X135.866 Y113.145 E.05675
G1 X135.428 Y113.59 E.05678
G1 X134.866 Y113.863 E.05681
G1 X134.439 Y113.928 E.03927
;WIPE_START
G1 F6240
G1 X134.35 Y113.94 E-.02871
G1 X133.86 Y113.873 E-.15812
G1 X133.542 Y113.75 E-.10901
G1 X133.112 Y113.459 E-.166
G1 X132.726 Y112.968 E-.19968
G1 X132.587 Y112.558 E-.13848
;WIPE_END
G1 Z.75 F7800
G1 X156.981 Y124.222
G1 Z.35
G1 E.8 F1500
;TYPE:Perimeter
G1 F900
G1 X156.791 Y124.403 E.02386
G1 X156.464 Y124.58 E.03381
G1 X156.086 Y124.678 E.03551
G1 X151.813 Y124.69 E.38854
G1 X151.41 Y124.637 E.03696
G1 X151.046 Y124.489 E.03573
G1 X150.748 Y124.271 E.03357
G1 X150.449 Y123.89 E.04404
G1 X150.291 Y123.48 E.03995
G1 X150.251 Y123.128 E.03221
G1 X150.251 Y118.053 E.46147
G1 X150.324 Y117.581 E.04343
G1 X150.542 Y117.145 E.04432
G1 X150.779 Y116.882 E.03219
G1 X151.099 Y116.664 E.03521
G1 X151.543 Y116.514 E.04261
G1 X152.308 Y116.491 E.06959
G1 X155.888 Y116.491 E.32553
;WIDTH:0.744973
G1 X155.976 Y116.482 E.00862
;WIDTH:0.789947
G1 X156.063 Y116.473 E.0091
;WIDTH:0.83492
G1 X156.15 Y116.465 E.00966
;WIDTH:0.879894
G1 X156.238 Y116.456 E.01036
;WIDTH:0.924867
G1 X156.325 Y116.447 E.01082
;WIDTH:0.969841
G1 X156.413 Y116.439 E.0115
G1 X156.929 Y116.734 E.07738
;WIDTH:0.936289
G1 X156.993 Y116.844 E.01595
;WIDTH:0.889031
G1 X157.057 Y116.954 E.01507
;WIDTH:0.841773
G1 X157.121 Y117.064 E.0142
;WIDTH:0.794515
G1 X157.184 Y117.174 E.01327
;WIDTH:0.747257
G1 X157.248 Y117.284 E.01245
;WIDTH:0.7
G1 X157.399 Y117.655 E.03642
G1 X157.45 Y118.053 E.03649
G1 X157.45 Y123.128 E.46147
G1 X157.36 Y123.651 E.04826
G1 X157.118 Y124.091 E.04566
G1 X157.046 Y124.159 E.00901
G1 X156.539 Y123.78 F7800
G1 F900
G1 X156.336 Y123.951 E.02413
G1 X156.007 Y124.058 E.03146
G1 X155.888 Y124.065 E.01084
G1 X151.813 Y124.065 E.37054
G1 X151.458 Y123.995 E.0329
G1 X151.174 Y123.814 E.03062
G1 X150.959 Y123.515 E.03349
G1 X150.877 Y123.168 E.03242
G1 X150.876 Y118.053 E.4651
G1 X150.919 Y117.77 E.02603
G1 X151.05 Y117.508 E.02664
