; generated by PrusaSlicer 2.9.2 on 2025-06-03 at 12:58:43 UTC


;
;
; 

; external perimeters extrusion width = 0.68mm
; perimeters extrusion width = 0.68mm
; infill extrusion width = 0.68mm
; solid infill extrusion width = 0.68mm
; top infill extrusion width = 0.60mm
; first layer extrusion width = 0.70mm

M73 P0 R3
M73 Q0 S3
M201 X1000 Y1000 Z200 E5000 ; sets maximum accelerations, mm/sec^2
M203 X200 Y200 Z12 E120 ; sets maximum feedrates, mm / sec
M204 S1250 T1250 ; sets acceleration (S) and retract acceleration (R), mm/sec^2
M205 X8.00 Y8.00 Z0.40 E4.50 ; sets the jerk limits, mm/sec
M205 S0 T0 ; sets the minimum extruding and travel feed rate, mm/sec
;TYPE:Custom
M862.3 P "MK3S" ; printer model check
M862.1 P0.6 ; nozzle diameter check
M115 U3.14.1 ; tell printer latest fw version
G90 ; use absolute coordinates
M83 ; extruder relative mode
M104 S230 ; set extruder temp
M140 S70 ; set bed temp
M190 S70 ; wait for bed temp
M109 S230 ; wait for extruder temp
G28 W ; home all without mesh bed level
G80 X112.109 Y87.8221 W25.7818 H34.3558 ; mesh bed levelling

G1 Z0.2 F720
G1 Y-3 F1000 ; go outside print area
G92 E0
G1 X60 E9 F1000 ; intro line
G1 X100 E12.5 F1000 ; intro line
M73 P2 R3
M73 Q2 S3

G92 E0
M221 S95
G21 ; set units to millimeters
G90 ; use absolute coordinates
M83 ; use relative distances for extrusion

M900 K0.04 ; Filament gcode LA 1.5
M900 K18 ; Filament gcode LA 1.0




M107
;LAYER_CHANGE
;Z:0.35
;HEIGHT:0.35
G1 E-.8 F2100
M73 P3 R3
M73 Q3 S3
G1 Z.75 F7800
G1 X114.168 Y90.709
G1 Z.35
G1 E.8 F1500
;TYPE:Skirt/Brim
;WIDTH:0.7
G1 F900
G1 X114.877 Y89.984 E.09221
G1 X115.882 Y89.234 E.11403
G1 X116.803 Y88.75 E.09461
M73 Q4 S3
G1 X117.891 Y88.373 E.1047
G1 X119.019 Y88.173 E.10417
M73 P4 R3
G1 X119.722 Y88.135 E.06402
G1 X130.75 Y88.153 E1.00277
G1 X131.859 Y88.312 E.10187
G1 X133.004 Y88.668 E.10903
G1 X134.149 Y89.253 E.11692
G1 X135.062 Y89.929 E.1033
G1 X135.886 Y90.771 E.10712
G1 X136.52 Y91.66 E.09929
G1 X137.057 Y92.738 E.10951
G1 X137.394 Y93.824 E.10339
G1 X137.578 Y95.447 E.14852
G1 X137.578 Y114.553 E1.7373
G1 X137.401 Y116.146 E.14574
M73 P5 R2
M73 Q5 S2
G1 X137.011 Y117.371 E.1169
G1 X136.542 Y118.302 E.09479
G1 X135.886 Y119.229 E.10326
G1 X134.942 Y120.173 E.12139
G1 X134.149 Y120.747 E.08901
G1 X133.148 Y121.272 E.10278
G1 X131.859 Y121.688 E.12316
G1 X130.277 Y121.865 E.14475
G1 X119.735 Y121.865 E.95858
M73 Q6 S2
G1 X118.121 Y121.684 E.14768
M73 P6 R2
G1 X116.879 Y121.284 E.11865
G1 X115.947 Y120.807 E.0952
G1 X114.984 Y120.11 E.10809
G1 X114.216 Y119.349 E.09831
G1 X113.583 Y118.503 E.09608
G1 X112.98 Y117.35 E.11831
G1 X112.635 Y116.3 E.1005
G1 X112.452 Y115.193 E.10203
G1 X112.422 Y95.447 E1.7955
G1 X112.603 Y93.834 E.14759
M73 P7 R2
M73 Q7 S2
G1 X112.973 Y92.665 E.11149
G1 X113.517 Y91.6 E.10874
G1 X114.115 Y90.781 E.09221
;WIPE_START
G1 F6240
G1 X114.168 Y90.709 E-.02858
G1 X114.877 Y89.984 E-.3242
G1 X115.882 Y89.234 E-.40092
G1 X116.01 Y89.167 E-.0463
;WIPE_END
G1 Z.75 F7800
G1 X120.494 Y96.048
G1 Z.35
G1 E.8 F1500
;TYPE:Perimeter
;WIDTH:0.7
G1 F900
G1 X129.666 Y96.058 E.83401
G1 X129.666 Y113.953 E1.62718
M73 P8 R2
M73 Q8 S2
G1 X120.334 Y113.953 E.84855
G1 X120.334 Y96.047 E1.62818
M73 P9 R2
M73 Q9 S2
G1 X120.404 Y96.048 E.00637
G1 X119.747 Y95.459 F7800
G1 F900
G1 X119.808 Y95.422 E.00649
G1 X130.257 Y95.434 E.95012
G1 X130.291 Y95.529 E.00917
M73 P10 R2
M73 Q10 S2
G1 X130.291 Y114.423 E1.71802
G1 X130.267 Y114.545 E.01131
G1 X130.191 Y114.578 E.00753
G1 X119.863 Y114.578 E.93912
G1 X119.756 Y114.557 E.00992
M73 P11 R2
M73 Q11 S2
G1 X119.709 Y114.478 E.00836
G1 X119.709 Y95.576 E1.71875
G1 X119.716 Y95.538 E.00351
G1 X119.141 Y95.252 F7800
;TYPE:External perimeter
G1 F900
G1 X119.145 Y95.228 E.00221
G1 X119.269 Y95 E.0236
G1 X119.544 Y94.831 E.02935
G1 X119.761 Y94.797 E.01997
G1 X130.196 Y94.809 E.94885
G1 X130.457 Y94.837 E.02387
M73 P12 R2
M73 Q12 S2
G1 X130.714 Y94.983 E.02688
G1 X130.882 Y95.257 E.02923
G1 X130.916 Y95.529 E.02493
G1 X130.916 Y114.423 E1.71802
G1 X130.838 Y114.843 E.03884
M73 Q13 S2
G1 X130.735 Y114.964 E.01445
G1 X130.542 Y115.129 E.02309
G1 X130.239 Y115.203 E.02836
M73 P13 R2
G1 X119.863 Y115.203 E.94348
G1 X119.517 Y115.143 E.03193
G1 X119.287 Y115.018 E.0238
G1 X119.118 Y114.743 E.02935
G1 X119.084 Y114.526 E.01997
G1 X119.084 Y95.576 E1.72311
G1 X119.125 Y95.341 E.02169
M73 P14 R2
M73 Q14 S2
;WIPE_START
G1 F6240
G1 X119.141 Y95.252 E-.02891
G1 X119.145 Y95.228 E-.00778
G1 X119.269 Y95 E-.08298
G1 X119.544 Y94.831 E-.1032
G1 X119.761 Y94.797 E-.07022
G1 X121.347 Y94.799 E-.50691
;WIPE_END
G1 Z.75 F7800
G1 X128.21 Y96.244
G1 Z.35
G1 E.8 F1500
;TYPE:Solid infill
;WIDTH:0.70215
G1 F900
G1 X129.198 Y97.232 E.12749
G1 X129.198 Y98.119 E.08093
G1 X127.603 Y96.524 E.20581
G1 X126.716 Y96.523 E.08093
G1 X129.198 Y99.005 E.32027
G1 X129.198 Y99.892 E.08093
G1 X125.828 Y96.522 E.43485
G1 X124.94 Y96.521 E.08102
G1 X129.198 Y100.779 E.54944
G1 X129.198 Y101.666 E.08093
M73 P15 R2
M73 Q15 S2
G1 X124.052 Y96.52 E.66402
G1 X123.165 Y96.519 E.08093
G1 X129.198 Y102.552 E.77848
G1 X129.198 Y103.439 E.08093
G1 X122.277 Y96.518 E.89306
G1 X121.389 Y96.517 E.08102
M73 P16 R2
M73 Q16 S2
G1 X129.198 Y104.326 E1.00764
G1 X129.198 Y105.213 E.08093
G1 X120.802 Y96.818 E1.08332
G1 X120.802 Y97.704 E.08084
M73 Q17 S2
G1 X129.198 Y106.099 E1.08332
M73 P17 R2
G1 X129.198 Y106.986 E.08093
G1 X120.802 Y98.591 E1.08332
G1 X120.802 Y99.478 E.08093
G1 X129.198 Y107.873 E1.08332
G1 X129.198 Y108.76 E.08093
M73 P18 R2
M73 Q18 S2
G1 X120.802 Y100.365 E1.08332
G1 X120.802 Y101.251 E.08084
G1 X129.198 Y109.646 E1.08332
G1 X129.198 Y110.533 E.08093
M73 P19 R2
M73 Q19 S2
G1 X120.802 Y102.138 E1.08332
G1 X120.802 Y103.025 E.08093
G1 X129.198 Y111.42 E1.08332
G1 X129.198 Y112.307 E.08093
M73 P20 R2
M73 Q20 S2
G1 X120.802 Y103.912 E1.08332
G1 X120.802 Y104.798 E.08084
G1 X129.198 Y113.194 E1.08339
G1 X129.198 Y113.485 E.02655
M73 P21 R2
M73 Q21 S2
G1 X128.602 Y113.485 E.05438
G1 X120.802 Y105.685 E1.00648
G1 X120.802 Y106.572 E.08093
G1 X127.715 Y113.485 E.89203
G1 X126.828 Y113.485 E.08093
G1 X120.802 Y107.459 E.77757
G1 X120.802 Y108.346 E.08093
M73 P22 R2
M73 Q22 S2
G1 X125.941 Y113.485 E.66312
G1 X125.055 Y113.485 E.08084
G1 X120.802 Y109.232 E.54879
G1 X120.802 Y110.119 E.08093
G1 X124.168 Y113.485 E.43434
G1 X123.281 Y113.485 E.08093
G1 X120.802 Y111.006 E.31988
G1 X120.802 Y111.893 E.08093
M73 P23 R2
M73 Q23 S2
G1 X122.394 Y113.485 E.20543
G1 X121.508 Y113.485 E.08084
G1 X120.521 Y112.498 E.12736
M106 S84.15
;LAYER_CHANGE
;Z:0.65
;HEIGHT:0.3
;BEFORE_LAYER_CHANGE
G92 E0.0
;0.65


;WIPE_START
G1 F6240
G1 X121.508 Y113.485 E-.44626
G1 X122.394 Y113.485 E-.28326
G1 X122.238 Y113.329 E-.07048
;WIPE_END
G1 Z.65 F7800
;AFTER_LAYER_CHANGE
;0.65
M104 S220 ; set temperature
M140 S60 ; set bed temperature
G1 Z1.05
G1 X120.441 Y96.007
G1 Z.65
G1 E.8 F1500
;TYPE:Perimeter
;WIDTH:0.675
G1 F3600
G1 X129.707 Y96.017 E.7057
G1 X129.707 Y113.994 E1.36912
G1 X120.293 Y113.994 E.71697
G1 X120.293 Y96.006 E1.36996
M73 Q24 S2
G1 X120.351 Y96.006 E.00442
M73 P24 R2
G1 X119.711 Y95.436 F7800
G1 F3600
G1 X119.713 Y95.426 E.00078
G1 X119.842 Y95.395 E.0101
G1 X130.272 Y95.407 E.79435
G1 X130.318 Y95.529 E.00993
G1 X130.318 Y114.423 E1.43896
G1 X130.289 Y114.566 E.01111
G1 X130.193 Y114.605 E.00789
G1 X119.863 Y114.605 E.78673
G1 X119.717 Y114.575 E.01135
G1 X119.682 Y114.48 E.00771
G1 X119.682 Y95.576 E1.43972
G1 X119.693 Y95.524 E.00405
G1 X119.128 Y95.248 F7800
;TYPE:External perimeter
G1 F1800
G1 X119.129 Y95.242 E.00046
G1 X119.218 Y95.048 E.01626
G1 X119.423 Y94.867 E.02083
G1 X119.771 Y94.785 E.02723
G1 X130.196 Y94.796 E.79397
G1 X130.46 Y94.826 E.02024
M73 P25 R2
M73 Q25 S2
G1 X130.723 Y94.974 E.02298
G1 X130.894 Y95.253 E.02492
G1 X130.929 Y95.529 E.02119
G1 X130.929 Y114.423 E1.43896
G1 X130.85 Y114.849 E.033
G1 X130.745 Y114.973 E.01237
G1 X130.548 Y115.14 E.01967
G1 X130.24 Y115.216 E.02416
G1 X119.863 Y115.216 E.79031
G1 X119.512 Y115.154 E.02715
G1 X119.278 Y115.027 E.02028
G1 X119.106 Y114.747 E.02503
G1 X119.072 Y114.527 E.01695
G1 X119.072 Y95.576 E1.4433
G1 X119.113 Y95.337 E.01847
;WIPE_START
G1 F6240
G1 X119.128 Y95.248 E-.02886
G1 X119.129 Y95.242 E-.00194
M73 Q26 S2
G1 X119.218 Y95.048 E-.06824
G1 X119.423 Y94.867 E-.08743
G1 X119.771 Y94.785 E-.11431
G1 X121.332 Y94.787 E-.49922
;WIPE_END
G1 Z1.05 F7800
M73 P26 R2
G1 X120.916 Y96.514
G1 Z.65
G1 E.8 F1500
;TYPE:Solid infill
;WIDTH:0.822903
G1 F1200
G1 X120.849 Y96.447 E.00896
G1 X120.758 Y96.472 E.00893
G1 X120.733 Y96.563 E.00893
G1 X120.8 Y96.63 E.00896
G1 X120.892 Y96.606 E.009
;WIDTH:0.675
G1 X121.866 Y96.466 E.07494
G1 X120.684 Y97.654 E.12763
;WIDTH:0.64146
G1 X120.618 Y97.726 E.00703
;WIDTH:0.60792
G1 X120.552 Y97.799 E.00667
;WIDTH:0.574381
G1 X120.507 Y97.754 E.00405
G1 X120.445 Y97.77 E.00407
G1 X120.429 Y97.832 E.00407
G1 X120.474 Y97.877 E.00405
G1 X120.535 Y97.86 E.00403
;WIDTH:0.675
G1 X120.751 Y98.445 E.04749
G1 X122.728 Y96.467 E.21299
G1 X123.591 Y96.468 E.06573
G1 X120.751 Y99.308 E.30589
G1 X120.751 Y100.172 E.0658
G1 X124.453 Y96.469 E.39878
G1 X125.316 Y96.47 E.06573
G1 X120.751 Y101.035 E.49168
G1 X120.751 Y101.899 E.0658
G1 X126.178 Y96.471 E.58458
G1 X127.041 Y96.472 E.06573
M73 P27 R2
M73 Q27 S2
G1 X120.751 Y102.762 E.67747
G1 X120.751 Y103.626 E.0658
G1 X127.904 Y96.473 E.77042
G1 X128.766 Y96.474 E.06565
G1 X120.751 Y104.489 E.86326
G1 X120.751 Y105.353 E.0658
M73 Q28 S2
G1 X129.249 Y96.854 E.91534
M73 P28 R2
G1 X129.307 Y96.7 E.01253
;WIDTH:0.64146
G1 X129.365 Y96.545 E.01191
;WIDTH:0.60792
G1 X129.423 Y96.391 E.01116
;WIDTH:0.574381
G1 X129.362 Y96.407 E.00401
G1 X129.317 Y96.362 E.00405
G1 X129.333 Y96.3 E.00407
G1 X129.395 Y96.284 E.00407
G1 X129.44 Y96.329 E.00405
;WIPE_START
G1 F6240
G1 X129.395 Y96.284 E-.02035
G1 X129.333 Y96.3 E-.02047
G1 X129.317 Y96.362 E-.02047
G1 X129.362 Y96.407 E-.02035
G1 X129.423 Y96.391 E-.02016
G1 X129.365 Y96.545 E-.05261
G1 X129.307 Y96.7 E-.05291
G1 X129.249 Y96.854 E-.05261
G1 X128.055 Y98.049 E-.54007
;WIPE_END
G1 Z1.05 F7800
G1 X129.249 Y97.718
G1 Z.65
G1 E.8 F1500
;WIDTH:0.675
G1 F1200
G1 X120.751 Y106.216 E.91529
G1 X120.751 Y107.08 E.0658
G1 X129.249 Y98.581 E.91534
G1 X129.249 Y99.445 E.0658
M73 P29 R2
M73 Q29 S2
G1 X120.751 Y107.944 E.91534
G1 X120.751 Y108.807 E.06573
G1 X129.249 Y100.308 E.91534
G1 X129.249 Y101.172 E.0658
G1 X120.751 Y109.671 E.91534
G1 X120.751 Y110.534 E.06573
M73 P30 R2
M73 Q30 S2
G1 X129.249 Y102.036 E.91529
G1 X129.249 Y102.899 E.06573
G1 X120.751 Y111.398 E.91534
G1 X120.751 Y112.261 E.06573
G1 X129.249 Y103.763 E.91529
G1 X129.249 Y104.626 E.06573
M73 P31 R2
M73 Q31 S2
G1 X120.751 Y113.125 E.91534
G1 X120.729 Y113.299 E.01336
;WIDTH:0.64146
G1 X120.707 Y113.473 E.01262
;WIDTH:0.60792
G1 X120.685 Y113.647 E.01189
;WIDTH:0.574381
G1 X120.64 Y113.602 E.00405
G1 X120.579 Y113.618 E.00401
G1 X120.562 Y113.68 E.00409
G1 X120.607 Y113.725 E.00405
G1 X120.669 Y113.708 E.00409
;WIDTH:0.675
G1 X121.203 Y113.536 E.04273
G1 X129.249 Y105.49 E.8666
G1 X129.249 Y106.353 E.06573
M73 Q32 S2
G1 X122.066 Y113.536 E.77365
M73 P32 R2
G1 X122.93 Y113.536 E.0658
G1 X129.249 Y107.217 E.6806
G1 X129.249 Y108.08 E.06573
G1 X123.793 Y113.536 E.58764
G1 X124.657 Y113.536 E.0658
G1 X129.249 Y108.944 E.49459
G1 X129.249 Y109.807 E.06573
G1 X125.52 Y113.536 E.40164
M73 P33 R2
M73 Q33 S2
G1 X126.384 Y113.536 E.0658
G1 X129.249 Y110.671 E.30858
G1 X129.249 Y111.535 E.0658
G1 X127.248 Y113.536 E.21552
G1 X127.922 Y113.842 E.05637
;WIDTH:0.574381
G1 X127.86 Y113.858 E.00407
G1 X127.815 Y113.813 E.00405
G1 X127.832 Y113.752 E.00403
G1 X127.893 Y113.735 E.00403
G1 X127.938 Y113.78 E.00405
;WIDTH:0.60792
G1 X127.996 Y113.699 E.00675
;WIDTH:0.64146
G1 X128.054 Y113.618 E.00717
;WIDTH:0.675
G1 X128.111 Y113.536 E.00761
G1 X129.249 Y112.398 E.12257
G1 X129.262 Y113.431 E.07868
;WIDTH:0.835873
G1 X129.194 Y113.363 E.00925
G1 X129.101 Y113.388 E.00927
G1 X129.076 Y113.481 E.00927
G1 X129.144 Y113.549 E.00925
G1 X129.237 Y113.524 E.00927
M106 S170.85
;LAYER_CHANGE
;Z:0.95
;HEIGHT:0.3
;BEFORE_LAYER_CHANGE
G92 E0.0
;0.95


;WIPE_START
G1 F6240
G1 X129.144 Y113.549 E-.03079
G1 X129.076 Y113.481 E-.03075
G1 X129.101 Y113.388 E-.03079
G1 X129.194 Y113.363 E-.03079
G1 X129.262 Y113.431 E-.03075
G1 X129.249 Y112.398 E-.33029
G1 X128.551 Y113.097 E-.31584
;WIPE_END
G1 Z.95 F7800
;AFTER_LAYER_CHANGE
;0.95
G1 Z1.35
G1 X120.441 Y96.006
G1 Z.95
G1 E.8 F1500
;TYPE:Perimeter
;WIDTH:0.675
G1 F3600
G1 X129.707 Y96.013 E.7057
G1 X129.707 Y113.994 E1.36943
G1 X120.293 Y113.994 E.71697
M73 P34 R2
M73 Q34 S2
G1 X120.293 Y96.006 E1.36996
G1 X120.351 Y96.006 E.00442
G1 X119.711 Y95.436 F7800
G1 F3600
G1 X119.713 Y95.426 E.00078
G1 X119.842 Y95.395 E.0101
G1 X130.191 Y95.403 E.78818
G1 X130.276 Y95.414 E.00653
G1 X130.318 Y95.53 E.0094
G1 X130.318 Y114.423 E1.43889
G1 X130.289 Y114.566 E.01111
G1 X130.193 Y114.605 E.00789
G1 X119.863 Y114.605 E.78673
G1 X119.717 Y114.575 E.01135
G1 X119.682 Y114.48 E.00771
G1 X119.682 Y95.576 E1.43972
G1 X119.693 Y95.524 E.00405
M73 P35 R2
M73 Q35 S2
G1 X119.128 Y95.248 F7800
;TYPE:External perimeter
G1 F1800
G1 X119.129 Y95.242 E.00046
G1 X119.218 Y95.048 E.01626
G1 X119.423 Y94.867 E.02083
G1 X119.771 Y94.785 E.02723
G1 X130.192 Y94.793 E.79366
G1 X130.483 Y94.837 E.02241
G1 X130.723 Y94.974 E.02105
G1 X130.894 Y95.253 E.02492
G1 X130.929 Y95.53 E.02126
G1 X130.929 Y114.423 E1.43889
G1 X130.85 Y114.849 E.033
G1 X130.745 Y114.973 E.01237
G1 X130.548 Y115.14 E.01967
G1 X130.24 Y115.216 E.02416
G1 X119.863 Y115.216 E.79031
G1 X119.512 Y115.154 E.02715
G1 X119.278 Y115.027 E.02028
G1 X119.106 Y114.747 E.02503
G1 X119.072 Y114.527 E.01695
G1 X119.072 Y95.576 E1.4433
G1 X119.113 Y95.337 E.01847
M73 P36 R2
M73 Q36 S2
;WIPE_START
G1 F6240
G1 X119.128 Y95.248 E-.02886
G1 X119.129 Y95.242 E-.00194
G1 X119.218 Y95.048 E-.06824
G1 X119.423 Y94.867 E-.08743
G1 X119.771 Y94.785 E-.11431
G1 X121.332 Y94.786 E-.49922
;WIPE_END
G1 Z1.35 F7800
G1 X120.8 Y113.371
G1 Z.95
G1 E.8 F1500
;TYPE:Solid infill
;WIDTH:0.823153
G1 F1200
G1 X120.733 Y113.438 E.00897
G1 X120.758 Y113.529 E.00893
G1 X120.849 Y113.554 E.00893
G1 X120.916 Y113.487 E.00897
G1 X120.892 Y113.395 E.009
;WIDTH:0.675
G1 X121.867 Y113.536 E.07503
G1 X120.751 Y112.42 E.1202
G1 X120.679 Y112.327 E.00896
;WIDTH:0.64146
G1 X120.607 Y112.234 E.00847
;WIDTH:0.60792
G1 X120.535 Y112.14 E.00803
;WIDTH:0.574381
G1 X120.552 Y112.202 E.00409
G1 X120.507 Y112.247 E.00405
G1 X120.445 Y112.23 E.00409
G1 X120.429 Y112.169 E.00401
G1 X120.474 Y112.124 E.00405
;WIDTH:0.675
G1 X120.751 Y111.556 E.04813
G1 X122.731 Y113.536 E.21326
G1 X123.594 Y113.536 E.06573
G1 X120.751 Y110.693 E.30621
G1 X120.751 Y109.829 E.0658
M73 P36 R1
G1 X124.458 Y113.536 E.39927
G1 X125.321 Y113.536 E.06573
M73 P37 R1
M73 Q37 S1
G1 X120.751 Y108.966 E.49222
G1 X120.751 Y108.102 E.0658
G1 X126.185 Y113.536 E.58528
G1 X127.048 Y113.536 E.06573
G1 X120.751 Y107.239 E.67823
G1 X120.751 Y106.375 E.0658
G1 X127.912 Y113.536 E.77128
;WIPE_START
G1 F6240
M73 P38 R1
M73 Q38 S1
G1 X126.143 Y111.767 E-.8
;WIPE_END
G1 Z1.35 F7800
G1 X129.422 Y113.619
G1 Z.95
G1 E.8 F1500
;WIDTH:0.574381
G1 F1200
G1 X129.439 Y113.681 E.00409
G1 X129.394 Y113.726 E.00405
G1 X129.332 Y113.709 E.00409
G1 X129.316 Y113.648 E.00401
G1 X129.361 Y113.603 E.00405
;WIDTH:0.60792
G1 X129.166 Y113.581 E.0133
;WIDTH:0.64146
G1 X128.971 Y113.558 E.01413
;WIDTH:0.675
G1 X128.776 Y113.536 E.01495
G1 X120.751 Y105.511 E.86434
G1 X120.751 Y104.648 E.06573
G1 X129.249 Y113.147 E.91534
G1 X129.249 Y112.283 E.0658
G1 X120.751 Y103.784 E.91534
G1 X120.751 Y102.921 E.06573
M73 P39 R1
M73 Q39 S1
G1 X129.249 Y111.419 E.91529
G1 X129.249 Y110.556 E.06573
G1 X120.751 Y102.057 E.91534
G1 X120.751 Y101.194 E.06573
G1 X129.249 Y109.692 E.91529
M73 Q40 S1
G1 X129.249 Y108.829 E.06573
M73 P40 R1
G1 X120.751 Y100.33 E.91534
G1 X120.751 Y99.467 E.06573
G1 X129.249 Y107.965 E.91529
G1 X129.249 Y107.102 E.06573
M73 Q41 S1
G1 X120.751 Y98.603 E.91534
M73 P41 R1
G1 X120.751 Y97.74 E.06573
G1 X129.249 Y106.238 E.91529
G1 X129.249 Y105.375 E.06573
G1 X120.751 Y96.876 E.91534
G1 X120.723 Y96.682 E.01493
