; generated by PrusaSlicer 2.9.2 on 2025-06-09 at 20:00:55 UTC


;
;
; 

; external perimeters extrusion width = 0.68mm
; perimeters extrusion width = 0.68mm
; infill extrusion width = 0.68mm
; solid infill extrusion width = 0.68mm
; top infill extrusion width = 0.60mm
; first layer extrusion width = 0.70mm

; external perimeters extrusion width = 0.68mm
; perimeters extrusion width = 0.68mm
; infill extrusion width = 0.68mm
; solid infill extrusion width = 0.68mm
; top infill extrusion width = 0.60mm
; first layer extrusion width = 0.70mm

; external perimeters extrusion width = 0.68mm
; perimeters extrusion width = 0.68mm
; infill extrusion width = 0.68mm
; solid infill extrusion width = 0.68mm
; top infill extrusion width = 0.60mm
; first layer extrusion width = 0.70mm

; external perimeters extrusion width = 0.68mm
; perimeters extrusion width = 0.68mm
; infill extrusion width = 0.68mm
; solid infill extrusion width = 0.68mm
; top infill extrusion width = 0.60mm
; first layer extrusion width = 0.70mm

; external perimeters extrusion width = 0.68mm
; perimeters extrusion width = 0.68mm
; infill extrusion width = 0.68mm
; solid infill extrusion width = 0.68mm
; top infill extrusion width = 0.60mm
; first layer extrusion width = 0.70mm

M73 P0 R124
M73 Q0 S125
M201 X1000 Y1000 Z200 E5000 ; sets maximum accelerations, mm/sec^2
M203 X200 Y200 Z12 E120 ; sets maximum feedrates, mm / sec
M204 S1250 T1250 ; sets acceleration (S) and retract acceleration (R), mm/sec^2
M205 X8.00 Y8.00 Z0.40 E4.50 ; sets the jerk limits, mm/sec
M205 S0 T0 ; sets the minimum extruding and travel feed rate, mm/sec
;TYPE:Custom
M862.3 P "MK3S" ; printer model check
M862.1 P0.6 ; nozzle diameter check
M115 U3.14.1 ; tell printer latest fw version
G90 ; use absolute coordinates
M83 ; extruder relative mode
M104 S230 ; set extruder temp
M140 S70 ; set bed temp
M190 S70 ; wait for bed temp
M109 S230 ; wait for extruder temp
G28 W ; home all without mesh bed level
G80 X53.3751 Y21.5799 W143.25 H170.045 ; mesh bed levelling

G1 Z0.2 F720
G1 Y-3 F1000 ; go outside print area
G92 E0
G1 X60 E9 F1000 ; intro line
G1 X100 E12.5 F1000 ; intro line
M73 Q0 S124

G92 E0
M221 S95
G21 ; set units to millimeters
G90 ; use absolute coordinates
M83 ; use relative distances for extrusion

M900 K0.04 ; Filament gcode LA 1.5
M900 K18 ; Filament gcode LA 1.0




M107
;LAYER_CHANGE
;Z:0.35
;HEIGHT:0.35
G1 E-.8 F2100
G1 Z.75 F7800
G1 X78.111 Y29.865
G1 Z.35
G1 E.8 F1500
;TYPE:Skirt/Brim
;WIDTH:0.7
G1 F900
G1 X79.013 Y28.036 E.18543
G1 X81.513 Y24.536 E.3911
G1 X83.116 Y22.974 E.20352
G1 X85.164 Y22.07 E.20356
G1 X86.649 Y21.892 E.136
G1 X151.649 Y21.892 E5.91042
G1 X153.852 Y22.289 E.20354
G1 X155.778 Y23.43 E.20356
G1 X156.786 Y24.536 E.13607
G1 X159.286 Y28.036 E.3911
G1 X159.895 Y29.091 E.11077
G1 X194.983 Y106.208 E7.70394
G1 X195.795 Y108.363 E.2094
G1 X196.207 Y110.41 E.18987
G1 X196.312 Y112 E.14489
G1 X196.312 Y178 E6.00135
G1 X196.207 Y179.59 E.14489
G1 X195.795 Y181.637 E.18987
G1 X195.489 Y182.579 E.09006
G1 X194.619 Y184.476 E.18977
G1 X193.463 Y186.214 E.1898
G1 X192.75 Y187.049 E.09984
G1 X191.214 Y188.463 E.18984
G1 X189.476 Y189.619 E.1898
G1 X187.579 Y190.489 E.18977
G1 X186.637 Y190.795 E.09006
G1 X184.59 Y191.207 E.18987
G1 X183 Y191.312 E.14489
G1 X67 Y191.312 E10.54783
G1 X65.41 Y191.207 E.14489
G1 X63.363 Y190.795 E.18987
G1 X62.421 Y190.489 E.09006
G1 X60.524 Y189.619 E.18977
G1 X58.786 Y188.463 E.1898
G1 X57.951 Y187.75 E.09984
G1 X56.568 Y186.251 E.18545
G1 X55.955 Y185.413 E.09441
G1 X54.931 Y183.594 E.18981
G1 X54.511 Y182.579 E.09988
G1 X53.948 Y180.569 E.1898
G1 X53.793 Y179.59 E.09013
G1 X53.688 Y178 E.14489
G1 X53.688 Y112 E6.00135
G1 X53.793 Y110.41 E.14489
G1 X53.948 Y109.431 E.09013
G1 X54.304 Y107.997 E.13435
M73 P0 R123
G1 X78.085 Y29.951 E7.41883
;WIPE_START
G1 F6240
G1 X78.111 Y29.865 E-.02872
G1 X79.013 Y28.036 E-.652
G1 X79.23 Y27.732 E-.11928
;WIPE_END
G1 Z.75 F7800
G1 X113.829 Y141.237
G1 Z.35
G1 E.8 F1500
;TYPE:Perimeter
;WIDTH:0.7
G1 F900
G1 X113.855 Y141.206 E.00368
G1 X114.162 Y140.978 E.03477
G1 X114.659 Y140.799 E.04803
G1 X115.644 Y140.775 E.08959
G1 X135.068 Y140.775 E1.76622
G1 X135.475 Y140.829 E.03733
G1 X135.968 Y141.061 E.04954
G1 X136.305 Y141.384 E.04245
G1 X136.511 Y141.739 E.03732
G1 X136.619 Y142.152 E.03882
G1 X136.63 Y147.673 E.50202
G1 X136.567 Y148.1 E.03925
G1 X136.365 Y148.533 E.04345
G1 X136.061 Y148.868 E.04113
G1 X135.653 Y149.111 E.04318
G1 X135.202 Y149.219 E.04217
G1 X114.932 Y149.225 E1.84314
G1 X114.471 Y149.155 E.0424
G1 X114.068 Y148.964 E.04055
G1 X113.722 Y148.65 E.04249
G1 X113.478 Y148.233 E.04393
G1 X113.376 Y147.797 E.04072
G1 X113.37 Y142.337 E.49648
G1 X113.443 Y141.866 E.04334
G1 X113.635 Y141.467 E.04026
G1 X113.771 Y141.306 E.01916
G1 X114.282 Y141.687 F7800
G1 F900
G1 X114.47 Y141.522 E.02274
G1 X114.768 Y141.415 E.02879
G1 X115.644 Y141.4 E.07967
G1 X135.068 Y141.4 E1.76622
G1 X135.447 Y141.48 E.03522
G1 X135.711 Y141.655 E.0288
G1 X135.921 Y141.949 E.03285
G1 X136.003 Y142.281 E.0311
G1 X136.005 Y147.669 E.48993
G1 X135.941 Y148.003 E.03092
G1 X135.757 Y148.298 E.03161
G1 X135.454 Y148.516 E.03394
G1 X135.108 Y148.599 E.03235
G1 X114.932 Y148.6 E1.83459
G1 X114.582 Y148.532 E.03242
G1 X114.275 Y148.33 E.03342
G1 X114.073 Y148.037 E.03236
G1 X113.995 Y147.689 E.03243
G1 X113.995 Y142.337 E.48665
G1 X114.039 Y142.055 E.02595
G1 X114.185 Y141.772 E.02896
G1 X114.215 Y141.746 E.00361
G1 X114.718 Y142.126 F7800
;TYPE:External perimeter
G1 F900
G1 X114.745 Y142.087 E.00431
G1 X114.932 Y142.025 E.01791
G1 X135.068 Y142.025 E1.83096
G1 X135.248 Y142.082 E.01717
G1 X135.369 Y142.257 E.01935
G1 X135.38 Y147.665 E.49175
G1 X135.312 Y147.857 E.01852
G1 X135.134 Y147.968 E.01907
G1 X135.068 Y147.975 E.00604
G1 X114.932 Y147.975 E1.83096
G1 X114.74 Y147.908 E.01849
G1 X114.629 Y147.738 E.01846
G1 X114.62 Y142.337 E.49111
G1 X114.635 Y142.243 E.00866
G1 X114.666 Y142.199 E.00489
;WIPE_START
G1 F6240
G1 X114.718 Y142.126 E-.02865
G1 X114.745 Y142.087 E-.01517
G1 X114.932 Y142.025 E-.06299
G1 X117.1 Y142.025 E-.69319
;WIPE_END
G1 Z.75 F7800
G1 X117.2 Y138.655
G1 Z.35
G1 E.8 F1500
;TYPE:Perimeter
G1 F900
G1 X116.615 Y138.593 E.05349
G1 X116.046 Y138.429 E.05385
G1 X115.692 Y138.251 E.03603
G1 X115.261 Y137.959 E.04734
G1 X114.88 Y137.594 E.04798
G1 X114.571 Y137.176 E.04727
G1 X114.362 Y136.791 E.03983
G1 X114.184 Y136.222 E.05421
G1 X114.124 Y135.934 E.02675
G1 X114.136 Y135.173 E.06921
G1 X114.228 Y134.7 E.04382
G1 X114.441 Y134.166 E.05228
G1 X114.672 Y133.772 E.04153
G1 X115.061 Y133.327 E.05374
G1 X115.404 Y133.035 E.04096
G1 X115.926 Y132.741 E.05448
G1 X116.333 Y132.584 E.03967
G1 X116.922 Y132.479 E.0544
G1 X117.31 Y132.461 E.03532
G1 X117.825 Y132.52 E.04714
G1 X118.47 Y132.74 E.06197
G1 X118.877 Y132.955 E.04185
G1 X119.336 Y133.324 E.05355
G1 X119.622 Y133.626 E.03782
G1 X119.957 Y134.163 E.05755
G1 X120.129 Y134.552 E.03867
G1 X120.263 Y135.161 E.0567
G1 X120.292 Y135.629 E.04264
G1 X120.22 Y136.204 E.05269
G1 X120.065 Y136.709 E.04803
G1 X119.831 Y137.173 E.04725
G1 X119.517 Y137.597 E.04798
G1 X119.142 Y137.957 E.04727
G1 X118.704 Y138.253 E.04807
G1 X118.23 Y138.467 E.04729
G1 X117.785 Y138.593 E.04205
G1 X117.289 Y138.646 E.04536
G1 X117.2 Y138.03 F7800
G1 F900
G1 X116.694 Y137.973 E.0463
G1 X116.254 Y137.84 E.0418
G1 X115.611 Y137.442 E.06876
G1 X115.382 Y137.223 E.02881
G1 X115.073 Y136.805 E.04727
G1 X114.931 Y136.523 E.02871
G1 X114.746 Y135.865 E.06215
G1 X114.76 Y135.196 E.06085
G1 X114.827 Y134.882 E.02919
G1 X115.021 Y134.399 E.04733
G1 X115.187 Y134.13 E.02874
G1 X115.53 Y133.739 E.04729
G1 X115.777 Y133.54 E.02884
G1 X116.231 Y133.287 E.04726
G1 X116.528 Y133.182 E.02864
G1 X117.029 Y133.095 E.04624
G1 X117.533 Y133.105 E.04584
G1 X117.772 Y133.156 E.02222
G1 X118.262 Y133.329 E.04725
G1 X118.539 Y133.483 E.02882
G1 X118.943 Y133.81 E.04726
G1 X119.152 Y134.048 E.0288
G1 X119.425 Y134.49 E.04724
G1 X119.543 Y134.784 E.02881
G1 X119.653 Y135.292 E.04726
G1 X119.666 Y135.609 E.02885
G1 X119.6 Y136.124 E.04721
G1 X119.507 Y136.427 E.02882
G1 X119.273 Y136.891 E.04725
G1 X119.085 Y137.146 E.02881
G1 X118.71 Y137.506 E.04727
G1 X118.447 Y137.683 E.02883
G1 X117.973 Y137.898 E.04733
G1 X117.706 Y137.973 E.02522
G1 X117.289 Y138.02 E.03816
G1 X117.2 Y137.405 F7800
;TYPE:External perimeter
G1 F900
G1 X116.709 Y137.338 E.04506
G1 X116.392 Y137.215 E.03092
G1 X115.961 Y136.924 E.04729
G1 X115.576 Y136.433 E.05673
G1 X115.367 Y135.796 E.06096
G1 X115.385 Y135.219 E.05249
G1 X115.601 Y134.632 E.05687
G1 X115.999 Y134.152 E.0567
G1 X116.535 Y133.832 E.05676
G1 X117.135 Y133.71 E.05567
G1 X117.564 Y133.745 E.03914
G1 X118.054 Y133.918 E.04725
G1 X118.551 Y134.296 E.05678
G1 X118.893 Y134.818 E.05675
G1 X119.042 Y135.424 E.05674
G1 X118.98 Y136.045 E.05675
G1 X118.715 Y136.61 E.05675
G1 X118.277 Y137.055 E.05678
G1 X117.715 Y137.328 E.05681
G1 X117.289 Y137.392 E.03917
;WIPE_START
G1 F6240
G1 X117.2 Y137.405 E-.02876
G1 X116.709 Y137.338 E-.15843
G1 X116.392 Y137.215 E-.10871
G1 X115.961 Y136.924 E-.16626
G1 X115.576 Y136.433 E-.19948
G1 X115.441 Y136.022 E-.13836
;WIPE_END
G1 Z.75 F7800
G1 X132.783 Y132.467
G1 Z.35
G1 E.8 F1500
;TYPE:Perimeter
G1 F900
G1 X132.91 Y132.461 E.01156
G1 X133.425 Y132.52 E.04714
G1 X134.07 Y132.74 E.06197
G1 X134.474 Y132.953 E.04153
G1 X134.936 Y133.324 E.05388
G1 X135.242 Y133.654 E.04092
G1 X135.557 Y134.163 E.05443
G1 X135.738 Y134.584 E.04167
G1 X135.863 Y135.161 E.05368
G1 X135.895 Y135.6 E.04002
G1 X135.82 Y136.204 E.05534
G1 X135.706 Y136.622 E.0394
G1 X135.431 Y137.173 E.056
G1 X135.117 Y137.597 E.04798
G1 X134.742 Y137.957 E.04727
G1 X134.41 Y138.2 E.03741
G1 X133.83 Y138.467 E.05806
G1 X133.385 Y138.593 E.04205
G1 X132.8 Y138.655 E.05349
G1 X132.215 Y138.593 E.05349
G1 X131.646 Y138.429 E.05385
G1 X131.292 Y138.251 E.03603
G1 X130.861 Y137.959 E.04734
G1 X130.48 Y137.594 E.04798
G1 X130.171 Y137.176 E.04727
G1 X129.933 Y136.705 E.04799
G1 X129.781 Y136.208 E.04726
M73 Q0 S123
G1 X129.713 Y135.755 E.04165
G1 X129.736 Y135.165 E.05369
G1 X129.813 Y134.742 E.0391
G1 X130.041 Y134.166 E.05633
G1 X130.253 Y133.796 E.03878
G1 X130.661 Y133.327 E.05652
G1 X131.03 Y133.019 E.04371
G1 X131.526 Y132.741 E.0517
G1 X132.018 Y132.566 E.04748
G1 X132.522 Y132.479 E.04651
G1 X132.693 Y132.471 E.01557
G1 X132.786 Y133.098 F7800
G1 F900
G1 X133.133 Y133.105 E.03156
G1 X133.372 Y133.156 E.02222
G1 X133.862 Y133.329 E.04725
G1 X134.139 Y133.483 E.02882
G1 X134.543 Y133.81 E.04726
G1 X134.752 Y134.048 E.0288
G1 X135.025 Y134.49 E.04724
G1 X135.155 Y134.841 E.03403
G1 X135.261 Y135.338 E.04621
G1 X135.266 Y135.609 E.02465
G1 X135.2 Y136.124 E.04721
G1 X135.107 Y136.427 E.02882
G1 X134.873 Y136.891 E.04725
G1 X134.685 Y137.146 E.02881
G1 X134.31 Y137.506 E.04727
G1 X134.047 Y137.683 E.02883
G1 X133.573 Y137.898 E.04733
G1 X133.306 Y137.973 E.02522
G1 X132.8 Y138.03 E.0463
G1 X132.294 Y137.973 E.0463
G1 X131.854 Y137.84 E.0418
G1 X131.211 Y137.442 E.06876
G1 X130.982 Y137.223 E.02881
G1 X130.673 Y136.805 E.04727
G1 X130.531 Y136.522 E.02879
G1 X130.379 Y136.025 E.04726
G1 X130.338 Y135.711 E.02879
G1 X130.36 Y135.191 E.04733
G1 X130.427 Y134.882 E.02875
G1 X130.621 Y134.399 E.04733
G1 X130.787 Y134.13 E.02874
G1 X131.13 Y133.739 E.04729
G1 X131.377 Y133.54 E.02884
G1 X131.831 Y133.287 E.04726
G1 X132.126 Y133.182 E.02847
G1 X132.629 Y133.095 E.04642
G1 X132.696 Y133.096 E.00609
G1 X132.788 Y133.715 F7800
;TYPE:External perimeter
G1 F900
G1 X133.164 Y133.745 E.0343
G1 X133.654 Y133.918 E.04725
G1 X134.151 Y134.296 E.05678
G1 X134.493 Y134.818 E.05675
G1 X134.642 Y135.424 E.05674
G1 X134.58 Y136.045 E.05675
G1 X134.315 Y136.61 E.05675
G1 X133.877 Y137.055 E.05678
G1 X133.315 Y137.328 E.05681
G1 X132.8 Y137.405 E.04735
G1 X132.309 Y137.338 E.04506
G1 X131.992 Y137.215 E.03092
G1 X131.561 Y136.924 E.04729
G1 X131.176 Y136.433 E.05673
G1 X130.976 Y135.842 E.05673
G1 X130.985 Y135.218 E.05675
G1 X131.201 Y134.632 E.05679
G1 X131.599 Y134.152 E.0567
G1 X132.135 Y133.832 E.05676
G1 X132.234 Y133.797 E.00955
G1 X132.699 Y133.717 E.0429
;WIPE_START
G1 F6240
G1 X132.788 Y133.715 E-.02846
G1 X133.164 Y133.745 E-.12059
G1 X133.654 Y133.918 E-.16614
G1 X134.151 Y134.296 E-.19963
G1 X134.493 Y134.818 E-.19952
G1 X134.557 Y135.078 E-.08566
;WIPE_END
G1 Z.75 F7800
G1 X160 Y150.079
G1 Z.35
G1 E.8 F1500
;TYPE:Perimeter
G1 F900
G1 X159.699 Y150.087 E.02738
G1 X158.845 Y149.963 E.07847
G1 X158.022 Y149.697 E.07865
G1 X157.257 Y149.295 E.07858
G1 X156.571 Y148.77 E.07855
G1 X155.983 Y148.136 E.07863
G1 X155.865 Y147.983 E.01757
G1 X155.511 Y147.412 E.06109
G1 X155.168 Y146.618 E.07865
G1 X154.964 Y145.778 E.0786
G1 X154.905 Y144.916 E.07856
G1 X154.992 Y144.056 E.0786
G1 X155.224 Y143.223 E.07863
G1 X155.59 Y142.446 E.0781
G1 X156.088 Y141.734 E.07901
G1 X156.697 Y141.12 E.07864
G1 X157.4 Y140.617 E.0786
G1 X158.178 Y140.241 E.07857
G1 X159.008 Y140.001 E.07856
G1 X159.842 Y139.908 E.07631
G1 X160.719 Y139.956 E.07986
G1 X161.572 Y140.153 E.0796
G1 X162.369 Y140.488 E.07861
G1 X163.097 Y140.953 E.07855
G1 X163.737 Y141.535 E.07866
G1 X164.268 Y142.216 E.07852
G1 X164.678 Y142.978 E.07868
G1 X164.952 Y143.797 E.07853
G1 X165.084 Y144.651 E.07858
G1 X165.07 Y145.516 E.07866
G1 X164.91 Y146.365 E.07856
G1 X164.608 Y147.175 E.07861
G1 X164.175 Y147.923 E.07859
G1 X163.621 Y148.586 E.07856
G1 X162.962 Y149.146 E.07864
G1 X162.219 Y149.587 E.07856
G1 X161.412 Y149.897 E.07861
G1 X160.565 Y150.065 E.07852
G1 X160.09 Y150.077 E.04321
G1 X160 Y149.457 F7800
G1 F900
G1 X159.699 Y149.462 E.02737
G1 X158.95 Y149.347 E.0689
G1 X158.231 Y149.107 E.06892
G1 X157.562 Y148.749 E.06899
G1 X156.963 Y148.283 E.06901
G1 X156.381 Y147.631 E.07947
G1 X156.043 Y147.084 E.05847
G1 X155.748 Y146.385 E.06899
G1 X155.575 Y145.647 E.06893
G1 X155.529 Y144.89 E.06896
G1 X155.612 Y144.136 E.06898
G1 X155.821 Y143.406 E.06905
G1 X156.148 Y142.727 E.06853
G1 X156.591 Y142.105 E.06944
G1 X157.129 Y141.571 E.06893
G1 X157.75 Y141.135 E.06899
G1 X158.435 Y140.81 E.06894
G1 X159.166 Y140.606 E.06901
G1 X159.895 Y140.531 E.06664
G1 X160.671 Y140.579 E.0707
G1 X161.415 Y140.757 E.06956
G1 X162.111 Y141.057 E.06892
G1 X162.747 Y141.471 E.069
G1 X163.304 Y141.986 E.06898
G1 X163.766 Y142.588 E.069
G1 X164.12 Y143.259 E.06898
G1 X164.355 Y143.98 E.06895
G1 X164.464 Y144.731 E.069
G1 X164.446 Y145.489 E.06894
G1 X164.299 Y146.233 E.06896
G1 X164.029 Y146.942 E.06899
G1 X163.642 Y147.595 E.06902
G1 X163.151 Y148.173 E.06896
G1 X162.57 Y148.66 E.06893
G1 X161.914 Y149.042 E.06903
G1 X161.204 Y149.307 E.06891
G1 X160.459 Y149.449 E.06896
G1 X160.09 Y149.455 E.03356
G1 X160 Y148.835 F7800
;TYPE:External perimeter
G1 F900
G1 X159.699 Y148.837 E.02737
G1 X159.056 Y148.731 E.05926
G1 X158.439 Y148.518 E.05935
G1 X157.867 Y148.204 E.05933
G1 X157.356 Y147.797 E.0594
G1 X156.898 Y147.28 E.0628
G1 X156.575 Y146.756 E.05597
G1 X156.327 Y146.152 E.05937
G1 X156.186 Y145.515 E.05932
G1 X156.153 Y144.863 E.05936
G1 X156.232 Y144.215 E.05936
G1 X156.419 Y143.589 E.05941
G1 X156.706 Y143.009 E.05884
G1 X157.093 Y142.477 E.05982
G1 X157.561 Y142.022 E.05935
G1 X158.1 Y141.653 E.0594
G1 X158.693 Y141.38 E.05936
G1 X159.323 Y141.211 E.05931
G1 X159.947 Y141.153 E.05698
G1 X160.622 Y141.202 E.06154
G1 X161.257 Y141.362 E.05954
G1 X161.854 Y141.627 E.05939
G1 X162.397 Y141.989 E.05934
G1 X162.872 Y142.437 E.05937
G1 X163.264 Y142.959 E.05936
G1 X163.562 Y143.54 E.05937
G1 X163.757 Y144.163 E.05936
G1 X163.844 Y144.81 E.05936
G1 X163.821 Y145.463 E.05941
G1 X163.688 Y146.102 E.05935
G1 X163.449 Y146.709 E.05932
G1 X163.11 Y147.267 E.05937
G1 X162.682 Y147.76 E.05936
G1 X162.177 Y148.174 E.05938
G1 X161.61 Y148.496 E.05929
G1 X160.996 Y148.718 E.05937
G1 X160.354 Y148.833 E.05931
G1 X160.09 Y148.835 E.02401
;WIPE_START
G1 F6240
G1 X160 Y148.835 E-.02877
G1 X159.699 Y148.837 E-.09624
G1 X159.056 Y148.731 E-.20835
G1 X158.439 Y148.518 E-.20869
G1 X157.867 Y148.204 E-.20862
G1 X157.746 Y148.108 E-.04933
;WIPE_END
G1 Z.75 F7800
G1 X181.129 Y123.129
G1 Z.35
G1 E.8 F1500
;TYPE:Perimeter
G1 F900
G1 X181.012 Y123.258 E.01584
