; generated by PrusaSlicer 2.9.2 on 2025-06-03 at 10:05:47 UTC


;
;
; 

; external perimeters extrusion width = 0.68mm
; perimeters extrusion width = 0.68mm
; infill extrusion width = 0.68mm
; solid infill extrusion width = 0.68mm
; top infill extrusion width = 0.60mm
; first layer extrusion width = 0.70mm

; external perimeters extrusion width = 0.68mm
; perimeters extrusion width = 0.68mm
; infill extrusion width = 0.68mm
; solid infill extrusion width = 0.68mm
; top infill extrusion width = 0.60mm
; first layer extrusion width = 0.70mm

M73 P0 R172
M73 Q0 S174
M201 X1000 Y1000 Z200 E5000 ; sets maximum accelerations, mm/sec^2
M203 X200 Y200 Z12 E120 ; sets maximum feedrates, mm / sec
M204 S1250 T1250 ; sets acceleration (S) and retract acceleration (R), mm/sec^2
M205 X8.00 Y8.00 Z0.40 E4.50 ; sets the jerk limits, mm/sec
M205 S0 T0 ; sets the minimum extruding and travel feed rate, mm/sec
;TYPE:Custom
M862.3 P "MK3S" ; printer model check
M862.1 P0.6 ; nozzle diameter check
M115 U3.14.1 ; tell printer latest fw version
G90 ; use absolute coordinates
M83 ; extruder relative mode
M104 S230 ; set extruder temp
M140 S70 ; set bed temp
M190 S70 ; wait for bed temp
M109 S230 ; wait for extruder temp
G28 W ; home all without mesh bed level
G80 X53.3751 Y40.2077 W143.25 H149.544 ; mesh bed levelling

G1 Z0.2 F720
G1 Y-3 F1000 ; go outside print area
G92 E0
G1 X60 E9 F1000 ; intro line
G1 X100 E12.5 F1000 ; intro line

G92 E0
M221 S95
G21 ; set units to millimeters
G90 ; use absolute coordinates
M83 ; use relative distances for extrusion

M900 K0.04 ; Filament gcode LA 1.5
M900 K18 ; Filament gcode LA 1.0




M107
;LAYER_CHANGE
;Z:0.35
;HEIGHT:0.35
G1 E-.8 F2100
G1 Z.75 F7800
G1 X63.981 Y43.769
G1 Z.35
G1 E.8 F1500
;TYPE:Skirt/Brim
;WIDTH:0.7
G1 F900
G1 X65.397 Y42.036 E.20349
G1 X67.328 Y40.905 E.20349
G1 X69.5 Y40.52 E.20058
G1 X180.5 Y40.52 E10.09318
G1 X182.703 Y40.917 E.20354
G1 X184.629 Y42.058 E.20356
G1 X186.035 Y43.799 E.20349
G1 X186.741 Y45.888 E.20051
G1 X196.155 Y108.087 E5.72014
G1 X196.293 Y109.632 E.14105
G1 X196.293 Y176.622 E6.09137
G1 X196.052 Y178.696 E.18986
G1 X195.489 Y180.706 E.1898
G1 X195.069 Y181.721 E.09988
G1 X194.045 Y183.54 E.18981
G1 X192.75 Y185.176 E.18973
G1 X191.214 Y186.59 E.18984
G1 X190.413 Y187.172 E.09003
G1 X188.594 Y188.196 E.18981
G1 X187.579 Y188.616 E.09988
G1 X185.569 Y189.179 E.1898
G1 X184.59 Y189.334 E.09013
G1 X183 Y189.439 E.14489
G1 X67 Y189.439 E10.54783
G1 X65.41 Y189.334 E.14489
G1 X64.431 Y189.179 E.09013
G1 X62.421 Y188.616 E.1898
G1 X61.406 Y188.196 E.09988
G1 X59.628 Y187.197 E.18544
G1 X57.951 Y185.877 E.19406
G1 X56.537 Y184.341 E.18984
G1 X55.955 Y183.54 E.09003
G1 X54.931 Y181.721 E.18981
G1 X54.205 Y179.764 E.1898
G1 X53.948 Y178.696 E.09988
G1 X53.707 Y176.622 E.18986
G1 X53.707 Y109.632 E6.09137
G1 X53.845 Y108.087 E.14105
M73 Q0 S173
G1 X63.259 Y45.888 E5.72014
G1 X63.952 Y43.855 E.1953
;WIPE_START
G1 F6240
G1 X63.981 Y43.769 E-.02902
G1 X65.397 Y42.036 E-.71549
G1 X65.547 Y41.948 E-.05549
;WIPE_END
G1 Z.75 F7800
G1 X134.612 Y154.289
G1 Z.35
G1 E.8 F1500
;TYPE:Perimeter
;WIDTH:0.7
G1 F900
G1 X134.555 Y154.356 E.008
G1 X134.164 Y154.612 E.0425
G1 X133.767 Y154.733 E.03774
G1 X133.513 Y154.754 E.02317
G1 X128.185 Y154.754 E.48447
G1 X127.769 Y154.698 E.03817
G1 X127.345 Y154.509 E.04221
G1 X127.022 Y154.235 E.03851
G1 X126.813 Y153.94 E.03287
G1 X126.681 Y153.615 E.0319
G1 X126.623 Y153.192 E.03882
G1 X126.623 Y149.05 E.37663
G1 X126.623 Y133.062 E1.45378
G1 X126.666 Y132.696 E.03351
G1 X126.814 Y132.313 E.03734
G1 X127.072 Y131.965 E.03939
G1 X127.45 Y131.683 E.04288
G1 X127.851 Y131.536 E.03884
G1 X128.185 Y131.5 E.03055
G1 X133.513 Y131.5 E.48447
G1 X133.932 Y131.557 E.03845
G1 X134.374 Y131.758 E.04415
G1 X134.706 Y132.053 E.04038
G1 X134.957 Y132.466 E.04395
G1 X135.068 Y132.91 E.04162
G1 X135.075 Y153.192 E1.84423
G1 X135.012 Y153.633 E.04051
G1 X134.827 Y154.037 E.0404
G1 X134.671 Y154.221 E.02193
G1 X134.169 Y153.852 F7800
G1 F900
G1 X133.904 Y154.044 E.02976
G1 X133.513 Y154.129 E.03638
G1 X128.185 Y154.129 E.48447
G1 X127.842 Y154.064 E.03174
G1 X127.537 Y153.87 E.03287
G1 X127.362 Y153.641 E.02621
G1 X127.257 Y153.327 E.03011
G1 X127.247 Y149.05 E.38891
G1 X127.247 Y133.062 E1.45378
G1 X127.318 Y132.704 E.03319
G1 X127.517 Y132.404 E.03273
G1 X127.797 Y132.208 E.03108
G1 X128.134 Y132.126 E.03154
G1 X133.513 Y132.125 E.48911
G1 X133.859 Y132.191 E.03203
G1 X134.17 Y132.394 E.03377
G1 X134.366 Y132.674 E.03108
G1 X134.449 Y133.011 E.03156
G1 X134.45 Y153.192 E1.83505
G1 X134.381 Y153.546 E.03279
G1 X134.228 Y153.786 E.02588
G1 X133.724 Y153.406 F7800
;TYPE:External perimeter
G1 F900
G1 X133.581 Y153.497 E.01541
G1 X133.513 Y153.504 E.00622
G1 X128.185 Y153.504 E.48447
G1 X127.991 Y153.437 E.01866
G1 X127.884 Y153.277 E.0175
G1 X127.872 Y149.05 E.38436
G1 X127.872 Y133.062 E1.45378
G1 X127.947 Y132.86 E.01959
M73 P0 R171
G1 X128.131 Y132.754 E.01931
G1 X128.185 Y132.749 E.00493
G1 X133.513 Y132.749 E.48447
G1 X133.71 Y132.819 E.01901
G1 X133.818 Y132.993 E.01862
G1 X133.826 Y133.535 E.04929
G1 X133.826 Y153.192 E1.7874
G1 X133.776 Y153.339 E.01412
;WIPE_START
G1 F6240
G1 X133.724 Y153.406 E-.02712
G1 X133.581 Y153.497 E-.05419
G1 X133.513 Y153.504 E-.02186
G1 X131.333 Y153.504 E-.69683
;WIPE_END
G1 Z.75 F7800
G1 X119.899 Y153.451
G1 Z.35
G1 E.8 F1500
;TYPE:Perimeter
G1 F900
G1 X119.315 Y153.392 E.05337
G1 X118.746 Y153.229 E.05382
G1 X118.392 Y153.05 E.03607
G1 X117.961 Y152.759 E.04729
G1 X117.618 Y152.443 E.04241
G1 X117.271 Y151.976 E.0529
G1 X117.051 Y151.559 E.04287
G1 X116.881 Y151.007 E.05252
G1 X116.813 Y150.566 E.04057
G1 X116.836 Y149.964 E.05478
G1 X116.927 Y149.5 E.043
G1 X117.141 Y148.966 E.05231
G1 X117.372 Y148.571 E.04161
G1 X117.761 Y148.126 E.05374
G1 X118.133 Y147.817 E.04397
G1 X118.626 Y147.541 E.05138
G1 X119.007 Y147.389 E.0373
G1 X119.5 Y147.3 E.04555
G1 X120.01 Y147.26 E.04652
G1 X120.538 Y147.323 E.04835
G1 X121.17 Y147.539 E.06073
G1 X121.631 Y147.797 E.04804
G1 X122.036 Y148.123 E.04727
G1 X122.385 Y148.519 E.048
G1 X122.657 Y148.962 E.04727
G1 X122.854 Y149.452 E.04802
G1 X122.963 Y149.96 E.04724
G1 X122.986 Y150.485 E.04778
G1 X122.923 Y150.989 E.04619
G1 X122.771 Y151.49 E.04761
G1 X122.535 Y151.965 E.04823
G1 X122.353 Y152.248 E.0306
G1 X121.842 Y152.756 E.06552
G1 X121.495 Y153.007 E.03894
G1 X120.93 Y153.266 E.05652
G1 X120.485 Y153.392 E.04205
G1 X119.989 Y153.448 E.04539
G1 X119.9 Y152.83 F7800
G1 F900
G1 X119.394 Y152.773 E.0463
G1 X118.909 Y152.622 E.04619
G1 X118.311 Y152.241 E.06447
G1 X118.082 Y152.022 E.02881
G1 X117.773 Y151.604 E.04727
G1 X117.631 Y151.321 E.02879
G1 X117.479 Y150.824 E.04726
G1 X117.438 Y150.51 E.02879
G1 X117.46 Y149.991 E.04723
G1 X117.527 Y149.681 E.02884
G1 X117.721 Y149.199 E.04724
G1 X117.887 Y148.929 E.02882
G1 X118.23 Y148.539 E.04723
G1 X118.477 Y148.34 E.02884
G1 X118.931 Y148.086 E.0473
G1 X119.228 Y147.981 E.02864
G1 X119.729 Y147.894 E.04624
G1 X120.233 Y147.904 E.04584
G1 X120.962 Y148.128 E.06935
G1 X121.239 Y148.283 E.02886
G1 X121.643 Y148.609 E.0472
G1 X121.852 Y148.847 E.0288
G1 X122.125 Y149.289 E.04724
G1 X122.243 Y149.583 E.02881
G1 X122.353 Y150.092 E.04735
G1 X122.366 Y150.407 E.02867
G1 X122.303 Y150.911 E.04619
G1 X122.212 Y151.211 E.02851
G1 X121.976 Y151.686 E.04823
G1 X121.785 Y151.946 E.02934
G1 X121.41 Y152.305 E.04721
G1 X121.147 Y152.483 E.02888
G1 X120.673 Y152.697 E.04729
G1 X120.406 Y152.773 E.02524
G1 X119.989 Y152.82 E.03816
G1 X119.9 Y152.201 F7800
;TYPE:External perimeter
G1 F900
G1 X119.409 Y152.137 E.04502
G1 X119.092 Y152.015 E.03089
G1 X118.661 Y151.723 E.04734
G1 X118.276 Y151.233 E.05666
G1 X118.076 Y150.641 E.05682
G1 X118.085 Y150.017 E.05675
G1 X118.301 Y149.432 E.0567
G1 X118.699 Y148.952 E.0567
G1 X119.235 Y148.632 E.05676
G1 X119.835 Y148.51 E.05567
G1 X120.264 Y148.544 E.03913
G1 X120.754 Y148.717 E.04725
G1 X121.251 Y149.095 E.05678
G1 X121.593 Y149.617 E.05675
G1 X121.742 Y150.223 E.05674
G1 X121.683 Y150.833 E.05573
G1 X121.416 Y151.408 E.05765
G1 X120.977 Y151.854 E.0569
G1 X120.415 Y152.128 E.05685
G1 X119.989 Y152.194 E.0392
;WIPE_START
G1 F6240
G1 X119.9 Y152.201 E-.02854
G1 X119.409 Y152.137 E-.15831
G1 X119.092 Y152.015 E-.1086
G1 X118.661 Y151.723 E-.16644
G1 X118.276 Y151.233 E-.19923
G1 X118.137 Y150.822 E-.13888
;WIPE_END
G1 Z.75 F7800
G1 X119.901 Y138.995
G1 Z.35
G1 E.8 F1500
;TYPE:Perimeter
G1 F900
G1 X119.859 Y138.999 E.00384
G1 X119.315 Y138.937 E.04979
G1 X118.746 Y138.774 E.05382
G1 X118.392 Y138.595 E.03607
G1 X117.961 Y138.304 E.04729
G1 X117.624 Y137.995 E.04157
G1 X117.271 Y137.521 E.05374
G1 X117.047 Y137.093 E.04393
G1 X116.881 Y136.552 E.05146
G1 X116.823 Y136.272 E.026
G1 X116.836 Y135.509 E.06939
G1 X116.928 Y135.044 E.0431
G1 X117.141 Y134.511 E.05219
G1 X117.377 Y134.11 E.04231
G1 X117.761 Y133.671 E.05303
G1 X118.112 Y133.375 E.04175
G1 X118.626 Y133.086 E.05362
G1 X119.045 Y132.925 E.04082
G1 X119.622 Y132.823 E.05328
G1 X120.01 Y132.805 E.03532
G1 X120.521 Y132.864 E.04677
G1 X121.17 Y133.084 E.06231
G1 X121.488 Y133.239 E.03217
G1 X122.036 Y133.668 E.06328
G1 X122.385 Y134.064 E.048
G1 X122.657 Y134.507 E.04727
G1 X122.854 Y134.997 E.04802
G1 X122.963 Y135.505 E.04724
G1 X122.986 Y136.033 E.04806
G1 X122.92 Y136.548 E.04721
G1 X122.765 Y137.053 E.04803
G1 X122.531 Y137.517 E.04725
G1 X122.217 Y137.942 E.04805
G1 X121.842 Y138.301 E.04721
G1 X121.404 Y138.597 E.04807
G1 X120.93 Y138.811 E.04729
G1 X120.485 Y138.937 E.04205
G1 X119.99 Y138.986 E.04523
G1 X119.901 Y138.372 F7800
G1 F900
G1 X119.876 Y138.374 E.00228
G1 X119.333 Y138.308 E.04974
G1 X118.827 Y138.128 E.04883
G1 X118.311 Y137.786 E.05629
G1 X118.082 Y137.567 E.02881
G1 X117.773 Y137.149 E.04727
G1 X117.631 Y136.866 E.02879
G1 X117.443 Y136.201 E.06284
G1 X117.46 Y135.536 E.06049
G1 X117.527 Y135.226 E.02884
G1 X117.721 Y134.744 E.04724
G1 X117.887 Y134.474 E.02882
G1 X118.23 Y134.084 E.04723
G1 X118.477 Y133.885 E.02884
G1 X118.931 Y133.631 E.0473
G1 X119.228 Y133.526 E.02864
G1 X119.729 Y133.439 E.04624
G1 X120.233 Y133.449 E.04584
G1 X120.472 Y133.5 E.02222
G1 X120.962 Y133.673 E.04725
G1 X121.239 Y133.828 E.02886
G1 X121.643 Y134.154 E.0472
G1 X121.852 Y134.392 E.0288
G1 X122.125 Y134.835 E.04732
G1 X122.243 Y135.129 E.02881
G1 X122.353 Y135.637 E.04726
G1 X122.366 Y135.953 E.02876
G1 X122.3 Y136.469 E.0473
G1 X122.207 Y136.772 E.02882
G1 X121.973 Y137.236 E.04725
G1 X121.785 Y137.491 E.02881
G1 X121.41 Y137.85 E.04721
G1 X121.147 Y138.028 E.02888
G1 X120.673 Y138.242 E.04729
G1 X120.406 Y138.318 E.02524
G1 X119.99 Y138.362 E.03804
G1 X119.901 Y137.748 F7800
;TYPE:External perimeter
G1 F900
G1 X119.892 Y137.75 E.00084
G1 X119.409 Y137.682 E.04435
G1 X119.092 Y137.56 E.03089
G1 X118.661 Y137.268 E.04734
G1 X118.276 Y136.778 E.05666
G1 X118.064 Y136.13 E.062
G1 X118.085 Y135.562 E.05168
G1 X118.301 Y134.977 E.0567
G1 X118.699 Y134.497 E.0567
G1 X119.235 Y134.177 E.05676
G1 X119.835 Y134.055 E.05567
G1 X120.264 Y134.089 E.03913
G1 X120.754 Y134.262 E.04725
G1 X121.251 Y134.64 E.05678
G1 X121.593 Y135.162 E.05675
G1 X121.742 Y135.768 E.05674
G1 X121.68 Y136.389 E.05675
G1 X121.415 Y136.954 E.05675
G1 X120.977 Y137.399 E.05678
G1 X120.415 Y137.673 E.05685
G1 X119.99 Y137.735 E.03905
;WIPE_START
G1 F6240
G1 X119.901 Y137.748 E-.02876
G1 X119.892 Y137.75 E-.00295
G1 X119.409 Y137.682 E-.15594
G1 X119.092 Y137.56 E-.1086
G1 X118.661 Y137.268 E-.16644
G1 X118.276 Y136.778 E-.19923
G1 X118.142 Y136.368 E-.13808
;WIPE_END
G1 Z.75 F7800
G1 X160.99 Y138.145
G1 Z.35
G1 E.8 F1500
;TYPE:Perimeter
G1 F900
G1 X161.572 Y138.28 E.05433
G1 X162.369 Y138.615 E.07861
G1 X163.097 Y139.08 E.07855
G1 X163.737 Y139.662 E.07866
G1 X164.268 Y140.343 E.07852
G1 X164.678 Y141.105 E.07868
G1 X164.952 Y141.924 E.07853
G1 X165.084 Y142.778 E.07858
G1 X165.07 Y143.643 E.07866
G1 X164.91 Y144.492 E.07856
G1 X164.608 Y145.302 E.07861
G1 X164.175 Y146.05 E.07859
G1 X163.621 Y146.713 E.07856
G1 X162.962 Y147.273 E.07864
G1 X162.219 Y147.714 E.07856
G1 X161.412 Y148.023 E.07858
G1 X160.565 Y148.192 E.07854
G1 X159.699 Y148.214 E.07877
G1 X158.845 Y148.09 E.07847
G1 X158.022 Y147.824 E.07865
G1 X157.257 Y147.422 E.07858
G1 X156.571 Y146.896 E.0786
G1 X155.983 Y146.263 E.07856
G1 X155.511 Y145.539 E.07859
G1 X155.168 Y144.745 E.07865
G1 X154.964 Y143.905 E.0786
G1 X154.905 Y143.043 E.07856
G1 X154.992 Y142.183 E.0786
G1 X155.224 Y141.35 E.07863
G1 X155.593 Y140.569 E.07854
G1 X156.175 Y139.754 E.09106
G1 X156.697 Y139.247 E.06617
G1 X157.4 Y138.744 E.0786
G1 X158.178 Y138.368 E.07857
G1 X159.008 Y138.128 E.07856
G1 X159.842 Y138.035 E.07631
G1 X160.719 Y138.083 E.07986
G1 X160.903 Y138.125 E.01716
G1 X160.834 Y138.745 F7800
G1 F900
G1 X161.415 Y138.884 E.05432
G1 X162.111 Y139.184 E.06892
G1 X162.747 Y139.598 E.069
G1 X163.304 Y140.113 E.06898
G1 X163.766 Y140.715 E.069
G1 X164.12 Y141.386 E.06898
G1 X164.355 Y142.107 E.06895
G1 X164.464 Y142.858 E.069
G1 X164.446 Y143.616 E.06894
G1 X164.299 Y144.36 E.06896
G1 X164.029 Y145.069 E.06899
G1 X163.642 Y145.722 E.06902
G1 X163.151 Y146.3 E.06896
G1 X162.57 Y146.787 E.06893
G1 X161.914 Y147.169 E.06903
G1 X161.204 Y147.434 E.06891
G1 X160.459 Y147.576 E.06896
G1 X159.699 Y147.589 E.06912
G1 X158.95 Y147.474 E.0689
G1 X158.231 Y147.234 E.06892
G1 X157.562 Y146.876 E.06899
G1 X156.963 Y146.41 E.06901
G1 X156.452 Y145.85 E.06893
G1 X156.043 Y145.211 E.06899
G1 X155.748 Y144.512 E.06899
G1 X155.575 Y143.774 E.06893
G1 X155.529 Y143.017 E.06896
G1 X155.612 Y142.263 E.06898
G1 X155.821 Y141.533 E.06905
G1 X156.151 Y140.85 E.06897
G1 X156.643 Y140.168 E.07647
G1 X157.129 Y139.698 E.06148
G1 X157.75 Y139.262 E.06899
G1 X158.435 Y138.937 E.06894
G1 X159.166 Y138.733 E.06901
G1 X159.895 Y138.658 E.06664
G1 X160.671 Y138.706 E.0707
G1 X160.747 Y138.724 E.0071
G1 X160.679 Y139.343 F7800
;TYPE:External perimeter
G1 F900
G1 X161.257 Y139.489 E.05421
G1 X161.854 Y139.754 E.05939
G1 X162.397 Y140.116 E.05934
G1 X162.872 Y140.564 E.05937
G1 X163.264 Y141.086 E.05936
G1 X163.562 Y141.667 E.05937
G1 X163.757 Y142.29 E.05936
G1 X163.844 Y142.937 E.05936
G1 X163.821 Y143.59 E.05941
G1 X163.688 Y144.229 E.05935
G1 X163.449 Y144.836 E.05932
G1 X163.11 Y145.394 E.05937
G1 X162.682 Y145.887 E.05936
G1 X162.177 Y146.301 E.05938
G1 X161.61 Y146.623 E.05929
G1 X160.996 Y146.845 E.05937
G1 X160.354 Y146.96 E.05931
G1 X159.699 Y146.964 E.05956
G1 X159.056 Y146.858 E.05926
G1 X158.439 Y146.645 E.05935
G1 X157.867 Y146.331 E.05933
G1 X157.356 Y145.924 E.0594
G1 X156.921 Y145.437 E.05938
G1 X156.575 Y144.883 E.05939
G1 X156.327 Y144.279 E.05937
G1 X156.186 Y143.642 E.05932
G1 X156.153 Y142.99 E.05936
G1 X156.232 Y142.342 E.05936
G1 X156.419 Y141.716 E.05941
G1 X156.709 Y141.131 E.05937
G1 X157.11 Y140.583 E.06175
G1 X157.561 Y140.149 E.05691
G1 X158.1 Y139.78 E.0594
G1 X158.693 Y139.507 E.05936
G1 X159.323 Y139.338 E.05931
G1 X159.947 Y139.28 E.05698
G1 X160.59 Y139.326 E.05862
;WIPE_START
G1 F6240
G1 X160.679 Y139.343 E-.02897
G1 X161.257 Y139.489 E-.1906
G1 X161.854 Y139.754 E-.20883
G1 X162.397 Y140.116 E-.20865
G1 X162.768 Y140.466 E-.16295
;WIPE_END
G1 Z.75 F7800
G1 X181.129 Y121.256
G1 Z.35
G1 E.8 F1500
;TYPE:Perimeter
G1 F900
G1 X181.012 Y121.385 E.01584
G1 X180.647 Y121.603 E.03866
G1 X180.175 Y121.721 E.04424
G1 X175.962 Y121.727 E.38309
G1 X175.509 Y121.659 E.04165
G1 X175.081 Y121.454 E.04315
G1 X174.728 Y121.122 E.04406
G1 X174.497 Y120.706 E.04327
G1 X174.404 Y120.274 E.04018
G1 X174.4 Y115.089 E.47147
G1 X174.416 Y114.867 E.02024
G1 X174.52 Y114.489 E.03565
G1 X174.765 Y114.086 E.04289
G1 X175.025 Y113.84 E.03255
G1 X175.362 Y113.647 E.03531
G1 X175.755 Y113.541 E.03701
G1 X175.962 Y113.527 E.01887
G1 X180.038 Y113.527 E.37063
G1 X180.501 Y113.598 E.04259
G1 X180.95 Y113.821 E.04559
G1 X181.249 Y114.104 E.03743
G1 X181.476 Y114.481 E.04001
G1 X181.566 Y114.766 E.02718
G1 X181.6 Y115.903 E.10343
G1 X181.6 Y120.165 E.38754
G1 X181.545 Y120.576 E.03771
G1 X181.352 Y121.009 E.04311
G1 X181.19 Y121.189 E.02202
G1 X180.697 Y120.819 F7800
G1 F900
G1 X180.673 Y120.854 E.00386
G1 X180.403 Y121.028 E.02921
G1 X180.038 Y121.102 E.03386
